;PancakePainter v1.2.0-beta GCODE header start
;Originally generated @ Sun Aug 07 2016 23:31:33 GMT+0200 (CEST)
;Settings used to generate this file:
;----------------------------------------
;botSpeed: 4620
;flattenResolution: 15
;lineEndPreShutoff: 20
;startWait: 450
;endWait: 250
;shadeChangeWait: 35
;useLineFill: false
;shapeFillWidth: 4
;fillSpacing: 15
;fillAngle: 23
;fillGroupThreshold: 27
;useColorSpeed: false
;botColorSpeed: 4620,4620,4620,4620
;----------------------------------------
W1 X42 Y210 L485 T0 ;Define Workspace of this file
G21 ;Set units to MM
G1 F4620 ;Set Speed
M107 ;Pump off
G4 P1000 ;Pause for 1000 milliseconds
M84 ;Motors off
G00 X1 Y1 ;Help homing
G28 X0 Y0 ;Home All Axis
;PancakePainter header complete
;Starting path #1/13, segments: 2, length: 36, color #1
G00 X48.343 Y6.343
M106 ;Pump on
G4 P450 ;Pause for 450 milliseconds
;Nearing path end, moving to preshutoff position
G00 X53.98 Y6.343
M107 ;Pump off
G00 X61.028 Y6.343
G4 P250 ;Pause for 250 milliseconds
;Completed path #1/13 on color #1
;Starting path #2/13, segments: 44, length: 1188, color #1
G00 X99.083 Y38.056
M106 ;Pump on
G4 P450 ;Pause for 450 milliseconds
G00 X92.741 Y38.056
G00 X92.741 Y44.398
G00 X86.398 Y44.398
G00 X86.398 Y50.741
G00 X92.741 Y50.741
G00 X92.741 Y57.083
G00 X99.083 Y57.083
G00 X99.083 Y63.426
G00 X105.426 Y63.426
G00 X105.426 Y57.083
G00 X111.768 Y57.083
G00 X111.768 Y50.741
G00 X130.796 Y50.741
G00 X130.796 Y57.083
G00 X137.139 Y57.083
G00 X137.139 Y69.769
G00 X143.481 Y69.769
G00 X143.481 Y57.083
G00 X149.824 Y57.083
G00 X149.824 Y82.454
G00 X137.139 Y82.454
G00 X137.139 Y95.139
G00 X130.796 Y95.139
G00 X130.796 Y101.482
G00 X137.139 Y101.482
G00 X137.139 Y95.139
G00 X143.481 Y95.139
G00 X143.481 Y101.482
G00 X149.824 Y101.482
G00 X149.824 Y120.51
G00 X143.481 Y120.51
G00 X143.481 Y133.195
G00 X156.166 Y133.195
G00 X156.166 Y126.852
G00 X162.509 Y126.852
G00 X162.509 Y95.139
G00 X156.166 Y95.139
G00 X156.166 Y50.741
G00 X149.824 Y50.741
G00 X149.824 Y44.398
G00 X143.481 Y44.398
;Nearing path end, moving to preshutoff position
G00 X143.481 Y38.76
M107 ;Pump off
G00 X143.481 Y38.056
G00 X137.139 Y38.056
G4 P250 ;Pause for 250 milliseconds
;Completed path #2/13 on color #1
;Starting path #3/13, segments: 4, length: 90, color #1
G00 X124.453 Y50.741
M106 ;Pump on
G4 P450 ;Pause for 450 milliseconds
G00 X124.453 Y63.426
G00 X118.111 Y63.426
;Nearing path end, moving to preshutoff position
G00 X118.111 Y57.788
M107 ;Pump off
G00 X118.111 Y50.741
G4 P250 ;Pause for 250 milliseconds
;Completed path #3/13 on color #1
;Starting path #4/13, segments: 2, length: 36, color #1
G00 X121.282 Y50.741
M106 ;Pump on
G4 P450 ;Pause for 450 milliseconds
;Nearing path end, moving to preshutoff position
G00 X121.282 Y56.379
M107 ;Pump off
G00 X121.282 Y63.426
G4 P250 ;Pause for 250 milliseconds
;Completed path #4/13 on color #1
;Starting path #5/13, segments: 7, length: 162, color #1
G00 X118.111 Y76.111
M106 ;Pump on
G4 P450 ;Pause for 450 milliseconds
G00 X102.254 Y76.111
G00 X102.254 Y88.797
G00 X111.768 Y88.797
G00 X111.768 Y82.454
;Nearing path end, moving to preshutoff position
G00 X117.406 Y82.454
M107 ;Pump off
G00 X118.111 Y82.454
G00 X118.111 Y76.111
G4 P250 ;Pause for 250 milliseconds
;Completed path #5/13 on color #1
;Starting path #6/13, segments: 10, length: 198, color #1
G00 X111.768 Y95.139
M106 ;Pump on
G4 P450 ;Pause for 450 milliseconds
G00 X99.083 Y95.139
G00 X99.083 Y88.797
G00 X92.741 Y88.797
G00 X92.741 Y76.111
G00 X99.083 Y76.111
G00 X99.083 Y69.769
G00 X92.741 Y69.769
;Nearing path end, moving to preshutoff position
G00 X92.741 Y64.131
M107 ;Pump off
G00 X92.741 Y63.426
G00 X99.083 Y63.426
G4 P250 ;Pause for 250 milliseconds
;Completed path #6/13 on color #1
;Starting path #7/13, segments: 14, length: 360, color #1
G00 X118.111 Y38.056
M106 ;Pump on
G4 P450 ;Pause for 450 milliseconds
G00 X99.083 Y38.056
G00 X99.083 Y25.37
G00 X105.426 Y25.37
G00 X105.426 Y31.713
G00 X111.768 Y31.713
G00 X111.768 Y25.37
G00 X124.453 Y25.37
G00 X124.453 Y31.713
G00 X130.796 Y31.713
G00 X130.796 Y25.37
G00 X137.139 Y25.37
G00 X137.139 Y38.056
;Nearing path end, moving to preshutoff position
G00 X125.158 Y38.056
M107 ;Pump off
G00 X118.111 Y38.056
G4 P250 ;Pause for 250 milliseconds
;Completed path #7/13 on color #1
;Starting path #8/13, segments: 4, length: 72, color #1
G00 X99.083 Y95.139
M106 ;Pump on
G4 P450 ;Pause for 450 milliseconds
G00 X99.083 Y101.482
G00 X92.741 Y101.482
;Nearing path end, moving to preshutoff position
G00 X92.741 Y107.12
M107 ;Pump off
G00 X92.741 Y114.167
G4 P250 ;Pause for 250 milliseconds
;Completed path #8/13 on color #1
;Starting path #9/13, segments: 11, length: 198, color #1
G00 X105.426 Y107.824
M106 ;Pump on
G4 P450 ;Pause for 450 milliseconds
G00 X105.426 Y101.482
G00 X111.768 Y101.482
G00 X111.768 Y95.139
G00 X118.111 Y95.139
G00 X118.111 Y101.482
G00 X111.768 Y101.482
G00 X111.768 Y107.824
G00 X124.453 Y107.824
;Nearing path end, moving to preshutoff position
G00 X124.453 Y102.186
M107 ;Pump off
G00 X124.453 Y101.482
G00 X130.796 Y101.482
G4 P250 ;Pause for 250 milliseconds
;Completed path #9/13 on color #1
;Starting path #10/13, segments: 15, length: 468, color #1
G00 X143.481 Y107.824
M106 ;Pump on
G4 P450 ;Pause for 450 milliseconds
G00 X130.796 Y107.824
G00 X130.796 Y114.167
G00 X105.426 Y114.167
G00 X105.426 Y107.824
G00 X99.083 Y107.824
G00 X99.083 Y114.167
G00 X86.398 Y114.167
G00 X86.398 Y120.51
G00 X92.741 Y120.51
G00 X92.741 Y126.852
G00 X137.139 Y126.852
G00 X137.139 Y120.51
G00 X143.481 Y120.51
;Nearing path end, moving to preshutoff position
G00 X143.481 Y114.872
M107 ;Pump off
G00 X143.481 Y107.824
G4 P250 ;Pause for 250 milliseconds
;Completed path #10/13 on color #1
;Starting path #11/13, segments: 13, length: 558, color #1
G00 X149.824 Y133.195
M106 ;Pump on
G4 P450 ;Pause for 450 milliseconds
G00 X156.166 Y133.195
G00 X156.166 Y139.537
G00 X162.509 Y139.537
G00 X162.509 Y171.25
G00 X80.055 Y171.25
G00 X80.055 Y152.223
G00 X86.398 Y152.223
G00 X86.398 Y139.537
G00 X92.741 Y139.537
G00 X92.741 Y133.195
;Nearing path end, moving to preshutoff position
G00 X98.378 Y133.195
M107 ;Pump off
G00 X99.083 Y133.195
G00 X99.083 Y126.852
G4 P250 ;Pause for 250 milliseconds
;Completed path #11/13 on color #1
;Starting path #12/13, segments: 6, length: 270, color #1
G00 X80.055 Y158.565
M106 ;Pump on
G4 P450 ;Pause for 450 milliseconds
G00 X105.426 Y158.565
G00 X105.426 Y152.223
G00 X143.481 Y152.223
G00 X143.481 Y158.565
;Nearing path end, moving to preshutoff position
G00 X155.462 Y158.565
M107 ;Pump off
G00 X162.509 Y158.565
G4 P250 ;Pause for 250 milliseconds
;Completed path #12/13 on color #1
;Starting path #13/13, segments: 4, length: 108, color #1
G00 X137.139 Y171.25
M106 ;Pump on
G4 P450 ;Pause for 450 milliseconds
G00 X137.139 Y164.908
;Nearing path end, moving to preshutoff position
G00 X112.473 Y164.908
M107 ;Pump off
G00 X111.768 Y164.908
G00 X111.768 Y171.25
G4 P250 ;Pause for 250 milliseconds
;Completed path #13/13 on color #1
;PancakePainter Footer Start
G4 P1000 ;Pause for 1000 milliseconds
G00 X1 Y1 ;Help homing
G28 X0 Y0 ;Home All Axis
M84 ;Motors off
;PancakePainter Footer Complete
