;PancakePainter v1.2.0-beta GCODE header start
;Originally generated @ Mon Aug 08 2016 23:11:39 GMT+0200 (CEST)
;Settings used to generate this file:
;----------------------------------------
;botSpeed: 4620
;flattenResolution: 15
;lineEndPreShutoff: 5
;startWait: 450
;endWait: 250
;shadeChangeWait: 35
;useLineFill: false
;shapeFillWidth: 4
;fillSpacing: 15
;fillAngle: 23
;fillGroupThreshold: 27
;useColorSpeed: false
;botColorSpeed: 4620,4620,4620,4620
;----------------------------------------
W1 X42 Y210 L485 T0 ;Define Workspace of this file
G21 ;Set units to MM
G1 F4620 ;Set Speed
M107 ;Pump off
G4 P1000 ;Pause for 1000 milliseconds
M84 ;Motors off
G00 X1 Y1 ;Help homing
G28 X0 Y0 ;Home All Axis
;PancakePainter header complete
;Starting path #1/12, segments: 2, length: 50, color #1
G00 X50.809 Y11.452
M106 ;Pump on
G4 P450 ;Pause for 450 milliseconds
;Nearing path end, moving to preshutoff position
G00 X66.666 Y11.452
M107 ;Pump off
G00 X68.427 Y11.452
G4 P250 ;Pause for 250 milliseconds
;Completed path #1/12 on color #1
;Starting path #2/12, segments: 44, length: 1650, color #1
G00 X86.046 Y20.261
M106 ;Pump on
G4 P450 ;Pause for 450 milliseconds
G00 X77.237 Y20.261
G00 X77.237 Y29.07
G00 X68.427 Y29.07
G00 X68.427 Y37.879
G00 X77.237 Y37.879
G00 X77.237 Y46.689
G00 X86.046 Y46.689
G00 X86.046 Y55.498
G00 X94.855 Y55.498
G00 X94.855 Y46.689
G00 X103.664 Y46.689
G00 X103.664 Y37.879
G00 X130.091 Y37.879
G00 X130.091 Y46.689
G00 X138.9 Y46.689
G00 X138.9 Y64.307
G00 X147.71 Y64.307
G00 X147.71 Y46.689
G00 X156.519 Y46.689
G00 X156.519 Y81.925
G00 X138.9 Y81.925
G00 X138.9 Y99.544
G00 X130.091 Y99.544
G00 X130.091 Y108.353
G00 X138.9 Y108.353
G00 X138.9 Y99.544
G00 X147.71 Y99.544
G00 X147.71 Y108.353
G00 X156.519 Y108.353
G00 X156.519 Y134.78
G00 X147.71 Y134.78
G00 X147.71 Y152.399
G00 X165.328 Y152.399
G00 X165.328 Y143.59
G00 X174.137 Y143.59
G00 X174.137 Y99.544
G00 X165.328 Y99.544
G00 X165.328 Y37.879
G00 X156.519 Y37.879
G00 X156.519 Y29.07
G00 X147.71 Y29.07
G00 X147.71 Y20.261
;Nearing path end, moving to preshutoff position
G00 X140.662 Y20.261
M107 ;Pump off
G00 X138.9 Y20.261
G4 P250 ;Pause for 250 milliseconds
;Completed path #2/12 on color #1
;Starting path #3/12, segments: 4, length: 125, color #1
G00 X121.282 Y37.879
M106 ;Pump on
G4 P450 ;Pause for 450 milliseconds
G00 X121.282 Y55.498
G00 X112.473 Y55.498
;Nearing path end, moving to preshutoff position
G00 X112.473 Y39.641
M107 ;Pump off
G00 X112.473 Y37.879
G4 P250 ;Pause for 250 milliseconds
;Completed path #3/12 on color #1
;Starting path #4/12, segments: 14, length: 500, color #1
G00 X112.473 Y20.261
M106 ;Pump on
G4 P450 ;Pause for 450 milliseconds
G00 X86.046 Y20.261
G00 X86.046 Y2.643
G00 X94.855 Y2.643
G00 X94.855 Y11.452
G00 X103.664 Y11.452
G00 X103.664 Y2.643
G00 X121.282 Y2.643
G00 X121.282 Y11.452
G00 X130.091 Y11.452
G00 X130.091 Y2.643
G00 X138.9 Y2.643
G00 X138.9 Y20.261
;Nearing path end, moving to preshutoff position
G00 X114.235 Y20.261
M107 ;Pump off
G00 X112.473 Y20.261
G4 P250 ;Pause for 250 milliseconds
;Completed path #4/12 on color #1
;Starting path #5/12, segments: 10, length: 275, color #1
G00 X86.046 Y55.498
M106 ;Pump on
G4 P450 ;Pause for 450 milliseconds
G00 X77.237 Y55.498
G00 X77.237 Y64.307
G00 X86.046 Y64.307
G00 X86.046 Y73.116
G00 X77.237 Y73.116
G00 X77.237 Y90.735
G00 X86.046 Y90.735
G00 X86.046 Y99.544
;Nearing path end, moving to preshutoff position
G00 X101.902 Y99.544
M107 ;Pump off
G00 X103.664 Y99.544
G4 P250 ;Pause for 250 milliseconds
;Completed path #5/12 on color #1
;Starting path #6/12, segments: 4, length: 100, color #1
G00 X86.046 Y99.544
M106 ;Pump on
G4 P450 ;Pause for 450 milliseconds
G00 X86.046 Y108.353
G00 X77.237 Y108.353
;Nearing path end, moving to preshutoff position
G00 X77.237 Y124.209
M107 ;Pump off
G00 X77.237 Y125.971
G4 P250 ;Pause for 250 milliseconds
;Completed path #6/12 on color #1
;Starting path #7/12, segments: 11, length: 275, color #1
G00 X94.855 Y117.162
M106 ;Pump on
G4 P450 ;Pause for 450 milliseconds
G00 X94.855 Y108.353
G00 X103.664 Y108.353
G00 X103.664 Y99.544
G00 X112.473 Y99.544
G00 X112.473 Y108.353
G00 X103.664 Y108.353
G00 X103.664 Y117.162
G00 X121.282 Y117.162
G00 X121.282 Y108.353
;Nearing path end, moving to preshutoff position
G00 X128.329 Y108.353
M107 ;Pump off
G00 X130.091 Y108.353
G4 P250 ;Pause for 250 milliseconds
;Completed path #7/12 on color #1
;Starting path #8/12, segments: 15, length: 650, color #1
G00 X147.71 Y117.162
M106 ;Pump on
G4 P450 ;Pause for 450 milliseconds
G00 X130.091 Y117.162
G00 X130.091 Y125.971
G00 X94.855 Y125.971
G00 X94.855 Y117.162
G00 X86.046 Y117.162
G00 X86.046 Y125.971
G00 X68.427 Y125.971
G00 X68.427 Y134.78
G00 X77.237 Y134.78
G00 X77.237 Y143.59
G00 X138.9 Y143.59
G00 X138.9 Y134.78
G00 X147.71 Y134.78
;Nearing path end, moving to preshutoff position
G00 X147.71 Y118.924
M107 ;Pump off
G00 X147.71 Y117.162
G4 P250 ;Pause for 250 milliseconds
;Completed path #8/12 on color #1
;Starting path #9/12, segments: 13, length: 775, color #1
G00 X156.519 Y152.399
M106 ;Pump on
G4 P450 ;Pause for 450 milliseconds
G00 X165.328 Y152.399
G00 X165.328 Y161.208
G00 X174.137 Y161.208
G00 X174.137 Y205.254
G00 X59.618 Y205.254
G00 X59.618 Y178.826
G00 X68.427 Y178.826
G00 X68.427 Y161.208
G00 X77.237 Y161.208
G00 X77.237 Y152.399
G00 X86.046 Y152.399
;Nearing path end, moving to preshutoff position
G00 X86.046 Y145.351
M107 ;Pump off
G00 X86.046 Y143.59
G4 P250 ;Pause for 250 milliseconds
;Completed path #9/12 on color #1
;Starting path #10/12, segments: 6, length: 375, color #1
G00 X59.618 Y187.635
M106 ;Pump on
G4 P450 ;Pause for 450 milliseconds
G00 X94.855 Y187.635
G00 X94.855 Y178.826
G00 X147.71 Y178.826
G00 X147.71 Y187.635
;Nearing path end, moving to preshutoff position
G00 X172.375 Y187.635
M107 ;Pump off
G00 X174.137 Y187.635
G4 P250 ;Pause for 250 milliseconds
;Completed path #10/12 on color #1
;Starting path #11/12, segments: 4, length: 150, color #1
G00 X138.9 Y205.254
M106 ;Pump on
G4 P450 ;Pause for 450 milliseconds
G00 X138.9 Y196.445
G00 X103.664 Y196.445
;Nearing path end, moving to preshutoff position
G00 X103.664 Y203.492
M107 ;Pump off
G00 X103.664 Y205.254
G4 P250 ;Pause for 250 milliseconds
;Completed path #11/12 on color #1
;Starting path #12/12, segments: 7, length: 225, color #1
G00 X112.473 Y73.116
M106 ;Pump on
G4 P450 ;Pause for 450 milliseconds
G00 X90.45 Y73.116
G00 X90.45 Y90.735
G00 X103.664 Y90.735
G00 X103.664 Y81.925
G00 X112.473 Y81.925
;Nearing path end, moving to preshutoff position
G00 X112.473 Y74.878
M107 ;Pump off
G00 X112.473 Y73.116
G4 P250 ;Pause for 250 milliseconds
;Completed path #12/12 on color #1
;PancakePainter Footer Start
G4 P1000 ;Pause for 1000 milliseconds
G00 X1 Y1 ;Help homing
G28 X0 Y0 ;Home All Axis
M84 ;Motors off
;PancakePainter Footer Complete
