;PancakePainter v1.2.0-beta GCODE header start
;Originally generated @ Sun Aug 07 2016 23:32:12 GMT+0200 (CEST)
;Settings used to generate this file:
;----------------------------------------
;botSpeed: 4620
;flattenResolution: 15
;lineEndPreShutoff: 20
;startWait: 450
;endWait: 250
;shadeChangeWait: 35
;useLineFill: false
;shapeFillWidth: 4
;fillSpacing: 15
;fillAngle: 23
;fillGroupThreshold: 27
;useColorSpeed: false
;botColorSpeed: 4620,4620,4620,4620
;----------------------------------------
W1 X42 Y210 L485 T0 ;Define Workspace of this file
G21 ;Set units to MM
G1 F4620 ;Set Speed
M107 ;Pump off
G4 P1000 ;Pause for 1000 milliseconds
M84 ;Motors off
G00 X1 Y1 ;Help homing
G28 X0 Y0 ;Home All Axis
;PancakePainter header complete
;Starting path #1/6, segments: 2, length: 45, color #1
G00 X47.285 Y35.237
M106 ;Pump on
G4 P450 ;Pause for 450 milliseconds
;Nearing path end, moving to preshutoff position
G00 X56.095 Y35.237
M107 ;Pump off
G00 X63.142 Y35.237
G4 P250 ;Pause for 250 milliseconds
;Completed path #1/6 on color #1
;Starting path #2/6, segments: 2, length: 31, color #1
G00 X91.976 Y59.284
M106 ;Pump on
G4 P450 ;Pause for 450 milliseconds
;Nearing path end, moving to preshutoff position
G00 X92.118 Y63.117
M107 ;Pump off
G00 X92.379 Y70.159
G4 P250 ;Pause for 250 milliseconds
;Completed path #2/6 on color #1
;Starting path #3/6, segments: 5, length: 120, color #1
G00 X89.569 Y72.235
M106 ;Pump on
G4 P450 ;Pause for 450 milliseconds
G00 X94.855 Y72.235
G00 X94.855 Y56.379
G00 X89.569 Y56.379
;Nearing path end, moving to preshutoff position
G00 X89.569 Y65.188
M107 ;Pump off
G00 X89.569 Y72.235
G4 P250 ;Pause for 250 milliseconds
;Completed path #3/6 on color #1
;Starting path #4/6, segments: 5, length: 120, color #1
G00 X105.426 Y72.235
M106 ;Pump on
G4 P450 ;Pause for 450 milliseconds
G00 X110.711 Y72.235
G00 X110.711 Y56.379
G00 X105.426 Y56.379
;Nearing path end, moving to preshutoff position
G00 X105.426 Y65.188
M107 ;Pump off
G00 X105.426 Y72.235
G4 P250 ;Pause for 250 milliseconds
;Completed path #4/6 on color #1
;Starting path #5/6, segments: 2, length: 33, color #1
G00 X108.087 Y70.562
M106 ;Pump on
G4 P450 ;Pause for 450 milliseconds
;Nearing path end, moving to preshutoff position
G00 X108.087 Y65.929
M107 ;Pump off
G00 X108.087 Y58.882
G4 P250 ;Pause for 250 milliseconds
;Completed path #5/6 on color #1
;Starting path #6/6, segments: 50, length: 1114, color #1
G00 X100.845 Y93.377
M106 ;Pump on
G4 P450 ;Pause for 450 milliseconds
G00 X94.855 Y93.377
G00 X94.855 Y98.663
G00 X84.284 Y98.663
G00 X84.284 Y103.948
G00 X78.998 Y103.948
G00 X78.998 Y109.234
G00 X68.427 Y109.234
G00 X68.427 Y98.663
G00 X73.713 Y98.663
G00 X73.713 Y82.806
G00 X78.998 Y82.806
G00 X78.998 Y72.235
G00 X73.713 Y72.235
G00 X73.713 Y66.95
G00 X68.427 Y66.95
G00 X68.427 Y61.664
G00 X63.142 Y61.664
G00 X63.142 Y51.093
G00 X84.284 Y51.093
G00 X84.284 Y45.808
G00 X89.569 Y45.808
G00 X89.569 Y35.237
G00 X94.855 Y35.237
G00 X94.855 Y24.666
G00 X105.426 Y24.666
G00 X105.426 Y35.237
G00 X110.711 Y35.237
G00 X110.711 Y45.808
G00 X115.997 Y45.808
G00 X115.997 Y51.093
G00 X137.139 Y51.093
G00 X137.139 Y61.664
G00 X131.853 Y61.664
G00 X131.853 Y66.95
G00 X126.568 Y66.95
G00 X126.568 Y72.235
G00 X121.282 Y72.235
G00 X121.282 Y82.806
G00 X126.568 Y82.806
G00 X126.568 Y98.663
G00 X131.853 Y98.663
G00 X131.853 Y109.234
G00 X121.282 Y109.234
G00 X121.282 Y103.948
G00 X115.997 Y103.948
G00 X115.997 Y98.663
G00 X105.426 Y98.663
;Nearing path end, moving to preshutoff position
G00 X105.426 Y94.434
M107 ;Pump off
G00 X105.426 Y93.377
G00 X99.436 Y93.377
G4 P250 ;Pause for 250 milliseconds
;Completed path #6/6 on color #1
;PancakePainter Footer Start
G4 P1000 ;Pause for 1000 milliseconds
G00 X1 Y1 ;Help homing
G28 X0 Y0 ;Home All Axis
M84 ;Motors off
;PancakePainter Footer Complete
