;PancakePainter v1.2.0-beta GCODE header start
;Originally generated @ Fri Dec 23 2016 23:44:33 GMT+0100 (CET)
;Settings used to generate this file:
;----------------------------------------
;botSpeed: 4620
;flattenResolution: 15
;lineEndPreShutoff: 20
;startWait: 450
;endWait: 250
;shadeChangeWait: 35
;useLineFill: false
;shapeFillWidth: 4
;fillSpacing: 15
;fillAngle: 23
;fillGroupThreshold: 27
;useColorSpeed: false
;botColorSpeed: 4620,4620,4620,4620
;----------------------------------------
W1 X42 Y210 L485 T0 ;Define Workspace of this file
G21 ;Set units to MM
G1 F4620 ;Set Speed
M107 ;Pump off
G4 P1000 ;Pause for 1000 milliseconds
M84 ;Motors off
G00 X1 Y1 ;Help homing
G28 X0 Y0 ;Home All Axis
;PancakePainter header complete
;Starting path #1/36, segments: 4, length: 138, color #4
G00 X125.608 Y39.71
M106 ;Pump on
G4 P450 ;Pause for 450 milliseconds
G00 X125.184 Y19.851
G00 X135.114 Y19.64
;Nearing path end, moving to preshutoff position
G00 X135.055 Y31.463
M107 ;Pump off
G00 X135.019 Y38.516
G4 P250 ;Pause for 250 milliseconds
;Completed path #1/36 on color #4
;Starting path #2/36, segments: 4, length: 349, color #4
G00 X145.605 Y69.075
M106 ;Pump on
G4 P450 ;Pause for 450 milliseconds
G00 X158.871 Y38.99
G00 X101.313 Y41.708
;Nearing path end, moving to preshutoff position
G00 X113.089 Y64.43
M107 ;Pump off
G00 X116.335 Y70.692
G4 P250 ;Pause for 250 milliseconds
;Completed path #2/36 on color #4
;Starting path #3/36, segments: 4, length: 292, color #4
G00 X124.882 Y98.822
M106 ;Pump on
G4 P450 ;Pause for 450 milliseconds
G00 X110.884 Y71.305
G00 X152.07 Y69.434
;Nearing path end, moving to preshutoff position
G00 X143.356 Y91.429
M107 ;Pump off
G00 X140.758 Y97.986
G4 P250 ;Pause for 250 milliseconds
;Completed path #3/36 on color #4
;Starting path #4/36, segments: 4, length: 263, color #4
G00 X134.918 Y126.919
M106 ;Pump on
G4 P450 ;Pause for 450 milliseconds
G00 X147.708 Y97.838
G00 X118.924 Y98.949
;Nearing path end, moving to preshutoff position
G00 X131.417 Y120.797
M107 ;Pump off
G00 X134.918 Y126.919
G4 P250 ;Pause for 250 milliseconds
;Completed path #4/36 on color #4
;Starting path #5/36, segments: 4, length: 349, color #4
G00 X103.981 Y141.396
M106 ;Pump on
G4 P450 ;Pause for 450 milliseconds
G00 X118.381 Y170.694
G00 X60.779 Y172.184
;Nearing path end, moving to preshutoff position
G00 X71.7 Y148.78
M107 ;Pump off
G00 X74.683 Y142.389
G4 P250 ;Pause for 250 milliseconds
;Completed path #5/36 on color #4
;Starting path #6/36, segments: 4, length: 292, color #4
G00 X80.145 Y113.587
M106 ;Pump on
G4 P450 ;Pause for 450 milliseconds
G00 X68.227 Y141.892
G00 X109.443 Y140.899
;Nearing path end, moving to preshutoff position
G00 X99.098 Y119.444
M107 ;Pump off
G00 X96.035 Y113.091
G4 P250 ;Pause for 250 milliseconds
;Completed path #6/36 on color #4
;Starting path #7/36, segments: 4, length: 263, color #4
G00 X86.601 Y84.785
M106 ;Pump on
G4 P450 ;Pause for 450 milliseconds
G00 X73.193 Y113.587
G00 X101.994 Y113.091
;Nearing path end, moving to preshutoff position
G00 X89.97 Y90.981
M107 ;Pump off
G00 X86.601 Y84.785
G4 P250 ;Pause for 250 milliseconds
;Completed path #7/36 on color #4
;Starting path #8/36, segments: 4, length: 138, color #4
G00 X94.546 Y172.184
M106 ;Pump on
G4 P450 ;Pause for 450 milliseconds
G00 X94.546 Y192.047
G00 X84.614 Y192.047
;Nearing path end, moving to preshutoff position
G00 X84.925 Y180.228
M107 ;Pump off
G00 X85.111 Y173.177
G4 P250 ;Pause for 250 milliseconds
;Completed path #8/36 on color #4
;Starting path #9/36, segments: 4, length: 349, color #4
G00 X166.053 Y142.886
M106 ;Pump on
G4 P450 ;Pause for 450 milliseconds
G00 X152.149 Y172.681
G00 X209.751 Y171.191
;Nearing path end, moving to preshutoff position
G00 X198.462 Y148.222
M107 ;Pump off
G00 X195.351 Y141.892
G4 P250 ;Pause for 250 milliseconds
;Completed path #9/36 on color #4
;Starting path #10/36, segments: 4, length: 292, color #4
G00 X187.405 Y113.587
M106 ;Pump on
G4 P450 ;Pause for 450 milliseconds
G00 X200.813 Y141.396
G00 X159.597 Y142.389
;Nearing path end, moving to preshutoff position
G00 X168.778 Y120.584
M107 ;Pump off
G00 X171.515 Y114.084
G4 P250 ;Pause for 250 milliseconds
;Completed path #10/36 on color #4
;Starting path #11/36, segments: 4, length: 263, color #4
G00 X177.97 Y85.282
M106 ;Pump on
G4 P450 ;Pause for 450 milliseconds
G00 X164.563 Y114.084
G00 X193.364 Y113.587
;Nearing path end, moving to preshutoff position
G00 X181.34 Y91.478
M107 ;Pump off
G00 X177.97 Y85.282
G4 P250 ;Pause for 250 milliseconds
;Completed path #11/36 on color #4
;Starting path #12/36, segments: 4, length: 349, color #4
G00 X207.086 Y69.577
M106 ;Pump on
G4 P450 ;Pause for 450 milliseconds
G00 X192.064 Y40.592
G00 X249.622 Y37.875
;Nearing path end, moving to preshutoff position
G00 X239.202 Y61.506
M107 ;Pump off
G00 X236.356 Y67.959
G4 P250 ;Pause for 250 milliseconds
;Completed path #12/36 on color #4
;Starting path #13/36, segments: 4, length: 292, color #4
G00 X231.509 Y96.871
M106 ;Pump on
G4 P450 ;Pause for 450 milliseconds
G00 X242.821 Y68.318
G00 X201.635 Y70.19
;Nearing path end, moving to preshutoff position
G00 X212.435 Y91.42
M107 ;Pump off
G00 X215.633 Y97.706
G4 P250 ;Pause for 250 milliseconds
;Completed path #13/36 on color #4
;Starting path #14/36, segments: 4, length: 263, color #4
G00 X225.669 Y125.804
M106 ;Pump on
G4 P450 ;Pause for 450 milliseconds
G00 X238.459 Y96.723
G00 X209.675 Y97.833
;Nearing path end, moving to preshutoff position
G00 X222.168 Y119.681
M107 ;Pump off
G00 X225.669 Y125.804
G4 P250 ;Pause for 250 milliseconds
;Completed path #14/36 on color #4
;Starting path #15/36, segments: 4, length: 292, color #4
G00 X255.933 Y121.036
M106 ;Pump on
G4 P450 ;Pause for 450 milliseconds
G00 X244.015 Y149.341
G00 X285.231 Y148.348
;Nearing path end, moving to preshutoff position
G00 X274.886 Y126.892
M107 ;Pump off
G00 X271.823 Y120.539
G4 P250 ;Pause for 250 milliseconds
;Completed path #15/36 on color #4
;Starting path #16/36, segments: 4, length: 349, color #4
G00 X279.769 Y148.845
M106 ;Pump on
G4 P450 ;Pause for 450 milliseconds
G00 X294.169 Y178.143
G00 X236.566 Y179.633
;Nearing path end, moving to preshutoff position
G00 X247.488 Y156.229
M107 ;Pump off
G00 X250.471 Y149.838
G4 P250 ;Pause for 250 milliseconds
;Completed path #16/36 on color #4
;Starting path #17/36, segments: 4, length: 138, color #4
G00 X260.899 Y180.626
M106 ;Pump on
G4 P450 ;Pause for 450 milliseconds
G00 X260.402 Y199.496
G00 X270.334 Y199.496
;Nearing path end, moving to preshutoff position
G00 X270.334 Y186.686
M107 ;Pump off
G00 X270.334 Y179.633
G4 P250 ;Pause for 250 milliseconds
;Completed path #17/36 on color #4
;Starting path #18/36, segments: 4, length: 263, color #4
G00 X310.087 Y127.293
M106 ;Pump on
G4 P450 ;Pause for 450 milliseconds
G00 X322.877 Y98.212
G00 X294.093 Y99.323
;Nearing path end, moving to preshutoff position
G00 X306.586 Y121.171
M107 ;Pump off
G00 X310.087 Y127.293
G4 P250 ;Pause for 250 milliseconds
;Completed path #18/36 on color #4
;Starting path #19/36, segments: 4, length: 292, color #4
G00 X315.927 Y98.361
M106 ;Pump on
G4 P450 ;Pause for 450 milliseconds
G00 X327.239 Y69.808
G00 X286.053 Y71.679
;Nearing path end, moving to preshutoff position
G00 X296.853 Y92.91
M107 ;Pump off
G00 X300.051 Y99.196
G4 P250 ;Pause for 250 milliseconds
;Completed path #19/36 on color #4
;Starting path #20/36, segments: 4, length: 349, color #4
G00 X291.504 Y71.066
M106 ;Pump on
G4 P450 ;Pause for 450 milliseconds
G00 X276.482 Y42.082
G00 X334.04 Y39.364
;Nearing path end, moving to preshutoff position
G00 X323.62 Y62.996
M107 ;Pump off
G00 X320.774 Y69.449
G4 P250 ;Pause for 250 milliseconds
;Completed path #20/36 on color #4
;Starting path #21/36, segments: 4, length: 138, color #4
G00 X310.188 Y38.89
M106 ;Pump on
G4 P450 ;Pause for 450 milliseconds
G00 X310.283 Y20.014
G00 X300.353 Y20.225
;Nearing path end, moving to preshutoff position
G00 X300.626 Y33.033
M107 ;Pump off
G00 X300.777 Y40.084
G4 P250 ;Pause for 250 milliseconds
;Completed path #21/36 on color #4
;Starting path #22/36, segments: 4, length: 263, color #4
G00 X262.388 Y92.234
M106 ;Pump on
G4 P450 ;Pause for 450 milliseconds
G00 X248.981 Y121.036
G00 X277.782 Y120.539
;Nearing path end, moving to preshutoff position
G00 X265.758 Y98.43
M107 ;Pump off
G00 X262.388 Y92.234
G4 P250 ;Pause for 250 milliseconds
;Completed path #22/36 on color #4
;Starting path #23/36, segments: 4, length: 138, color #4
G00 X225.771 Y37.4
M106 ;Pump on
G4 P450 ;Pause for 450 milliseconds
G00 X225.865 Y18.524
G00 X215.935 Y18.736
;Nearing path end, moving to preshutoff position
G00 X216.209 Y31.543
M107 ;Pump off
G00 X216.359 Y38.595
G4 P250 ;Pause for 250 milliseconds
;Completed path #23/36 on color #4
;Starting path #24/36, segments: 4, length: 138, color #4
G00 X185.916 Y172.681
M106 ;Pump on
G4 P450 ;Pause for 450 milliseconds
G00 X185.916 Y192.544
G00 X175.984 Y192.544
;Nearing path end, moving to preshutoff position
G00 X176.295 Y180.724
M107 ;Pump off
G00 X176.481 Y173.674
G4 P250 ;Pause for 250 milliseconds
;Completed path #24/36 on color #4
;Starting path #25/36, segments: 4, length: 349, color #4
G00 X337.868 Y147.851
M106 ;Pump on
G4 P450 ;Pause for 450 milliseconds
G00 X323.964 Y177.646
G00 X381.567 Y176.157
;Nearing path end, moving to preshutoff position
G00 X370.277 Y153.188
M107 ;Pump off
G00 X367.166 Y146.858
G4 P250 ;Pause for 250 milliseconds
;Completed path #25/36 on color #4
;Starting path #26/36, segments: 4, length: 292, color #4
G00 X359.221 Y118.553
M106 ;Pump on
G4 P450 ;Pause for 450 milliseconds
G00 X372.628 Y146.362
G00 X331.412 Y147.355
;Nearing path end, moving to preshutoff position
G00 X340.593 Y125.55
M107 ;Pump off
G00 X343.33 Y119.05
G4 P250 ;Pause for 250 milliseconds
;Completed path #26/36 on color #4
;Starting path #27/36, segments: 4, length: 263, color #4
G00 X349.786 Y90.248
M106 ;Pump on
G4 P450 ;Pause for 450 milliseconds
G00 X336.378 Y119.05
G00 X365.18 Y118.553
;Nearing path end, moving to preshutoff position
G00 X353.155 Y96.444
M107 ;Pump off
G00 X349.786 Y90.248
G4 P250 ;Pause for 250 milliseconds
;Completed path #27/36 on color #4
;Starting path #28/36, segments: 4, length: 349, color #4
G00 X378.405 Y71.563
M106 ;Pump on
G4 P450 ;Pause for 450 milliseconds
G00 X363.383 Y42.578
G00 X420.94 Y39.861
;Nearing path end, moving to preshutoff position
G00 X410.52 Y63.492
M107 ;Pump off
G00 X407.675 Y69.946
G4 P250 ;Pause for 250 milliseconds
;Completed path #28/36 on color #4
;Starting path #29/36, segments: 4, length: 292, color #4
G00 X402.828 Y98.857
M106 ;Pump on
G4 P450 ;Pause for 450 milliseconds
G00 X414.139 Y70.304
G00 X372.954 Y72.176
;Nearing path end, moving to preshutoff position
G00 X383.754 Y93.406
M107 ;Pump off
G00 X386.951 Y99.692
G4 P250 ;Pause for 250 milliseconds
;Completed path #29/36 on color #4
;Starting path #30/36, segments: 4, length: 263, color #4
G00 X396.988 Y127.79
M106 ;Pump on
G4 P450 ;Pause for 450 milliseconds
G00 X409.778 Y98.709
G00 X380.994 Y99.819
;Nearing path end, moving to preshutoff position
G00 X393.487 Y121.667
M107 ;Pump off
G00 X396.988 Y127.79
G4 P250 ;Pause for 250 milliseconds
;Completed path #30/36 on color #4
;Starting path #31/36, segments: 4, length: 292, color #4
G00 X427.374 Y119.172
M106 ;Pump on
G4 P450 ;Pause for 450 milliseconds
G00 X415.456 Y147.477
G00 X456.672 Y146.484
;Nearing path end, moving to preshutoff position
G00 X446.327 Y125.028
M107 ;Pump off
G00 X443.264 Y118.675
G4 P250 ;Pause for 250 milliseconds
;Completed path #31/36 on color #4
;Starting path #32/36, segments: 4, length: 349, color #4
G00 X451.21 Y146.981
M106 ;Pump on
G4 P450 ;Pause for 450 milliseconds
G00 X465.61 Y176.279
G00 X408.007 Y177.769
;Nearing path end, moving to preshutoff position
G00 X418.929 Y154.365
M107 ;Pump off
G00 X421.912 Y147.974
G4 P250 ;Pause for 250 milliseconds
;Completed path #32/36 on color #4
;Starting path #33/36, segments: 4, length: 138, color #4
G00 X432.34 Y178.762
M106 ;Pump on
G4 P450 ;Pause for 450 milliseconds
G00 X431.843 Y197.632
G00 X441.775 Y197.632
;Nearing path end, moving to preshutoff position
G00 X441.775 Y184.822
M107 ;Pump off
G00 X441.775 Y177.769
G4 P250 ;Pause for 250 milliseconds
;Completed path #33/36 on color #4
;Starting path #34/36, segments: 4, length: 138, color #4
G00 X357.731 Y177.646
M106 ;Pump on
G4 P450 ;Pause for 450 milliseconds
G00 X357.731 Y197.51
G00 X347.799 Y197.51
;Nearing path end, moving to preshutoff position
G00 X348.11 Y185.69
M107 ;Pump off
G00 X348.296 Y178.64
G4 P250 ;Pause for 250 milliseconds
;Completed path #34/36 on color #4
;Starting path #35/36, segments: 4, length: 263, color #4
G00 X433.829 Y89.874
M106 ;Pump on
G4 P450 ;Pause for 450 milliseconds
G00 X420.422 Y118.675
G00 X449.223 Y118.179
;Nearing path end, moving to preshutoff position
G00 X437.199 Y96.07
M107 ;Pump off
G00 X433.829 Y89.874
G4 P250 ;Pause for 250 milliseconds
;Completed path #35/36 on color #4
;Starting path #36/36, segments: 4, length: 138, color #4
G00 X397.089 Y39.387
M106 ;Pump on
G4 P450 ;Pause for 450 milliseconds
G00 X397.183 Y20.51
G00 X387.254 Y20.722
;Nearing path end, moving to preshutoff position
G00 X387.527 Y33.53
M107 ;Pump off
G00 X387.678 Y40.581
G4 P250 ;Pause for 250 milliseconds
;Completed path #36/36 on color #4
;PancakePainter Footer Start
G4 P1000 ;Pause for 1000 milliseconds
G00 X1 Y1 ;Help homing
G28 X0 Y0 ;Home All Axis
M84 ;Motors off
;PancakePainter Footer Complete
