;PancakePainter v1.2.0-beta GCODE header start
;Originally generated @ Fri Dec 23 2016 23:43:43 GMT+0100 (CET)
;Settings used to generate this file:
;----------------------------------------
;botSpeed: 4620
;flattenResolution: 15
;lineEndPreShutoff: 20
;startWait: 450
;endWait: 250
;shadeChangeWait: 35
;useLineFill: false
;shapeFillWidth: 4
;fillSpacing: 15
;fillAngle: 23
;fillGroupThreshold: 27
;useColorSpeed: false
;botColorSpeed: 4620,4620,4620,4620
;----------------------------------------
W1 X42 Y210 L485 T0 ;Define Workspace of this file
G21 ;Set units to MM
G1 F4620 ;Set Speed
M107 ;Pump off
G4 P1000 ;Pause for 1000 milliseconds
M84 ;Motors off
G00 X1 Y1 ;Help homing
G28 X0 Y0 ;Home All Axis
;PancakePainter header complete
;Starting path #1/72, segments: 4, length: 138, color #4
G00 X125.608 Y39.71
M106 ;Pump on
G4 P450 ;Pause for 450 milliseconds
G00 X125.184 Y19.851
G00 X135.114 Y19.64
;Nearing path end, moving to preshutoff position
G00 X135.055 Y31.463
M107 ;Pump off
G00 X135.019 Y38.516
G4 P250 ;Pause for 250 milliseconds
;Completed path #1/72 on color #4
;Starting path #2/72, segments: 4, length: 349, color #4
G00 X145.605 Y69.075
M106 ;Pump on
G4 P450 ;Pause for 450 milliseconds
G00 X158.871 Y38.99
G00 X101.313 Y41.708
;Nearing path end, moving to preshutoff position
G00 X113.089 Y64.43
M107 ;Pump off
G00 X116.335 Y70.692
G4 P250 ;Pause for 250 milliseconds
;Completed path #2/72 on color #4
;Starting path #3/72, segments: 4, length: 292, color #4
G00 X124.882 Y98.822
M106 ;Pump on
G4 P450 ;Pause for 450 milliseconds
G00 X110.884 Y71.305
G00 X152.07 Y69.434
;Nearing path end, moving to preshutoff position
G00 X143.356 Y91.429
M107 ;Pump off
G00 X140.758 Y97.986
G4 P250 ;Pause for 250 milliseconds
;Completed path #3/72 on color #4
;Starting path #4/72, segments: 4, length: 263, color #4
G00 X134.918 Y126.919
M106 ;Pump on
G4 P450 ;Pause for 450 milliseconds
G00 X147.708 Y97.838
G00 X118.924 Y98.949
;Nearing path end, moving to preshutoff position
G00 X131.417 Y120.797
M107 ;Pump off
G00 X134.918 Y126.919
G4 P250 ;Pause for 250 milliseconds
;Completed path #4/72 on color #4
;Starting path #5/72, segments: 4, length: 349, color #4
G00 X103.981 Y141.396
M106 ;Pump on
G4 P450 ;Pause for 450 milliseconds
G00 X118.381 Y170.694
G00 X60.779 Y172.184
;Nearing path end, moving to preshutoff position
G00 X71.7 Y148.78
M107 ;Pump off
G00 X74.683 Y142.389
G4 P250 ;Pause for 250 milliseconds
;Completed path #5/72 on color #4
;Starting path #6/72, segments: 4, length: 292, color #4
G00 X80.145 Y113.587
M106 ;Pump on
G4 P450 ;Pause for 450 milliseconds
G00 X68.227 Y141.892
G00 X109.443 Y140.899
;Nearing path end, moving to preshutoff position
G00 X99.098 Y119.444
M107 ;Pump off
G00 X96.035 Y113.091
G4 P250 ;Pause for 250 milliseconds
;Completed path #6/72 on color #4
;Starting path #7/72, segments: 4, length: 263, color #4
G00 X86.601 Y84.785
M106 ;Pump on
G4 P450 ;Pause for 450 milliseconds
G00 X73.193 Y113.587
G00 X101.994 Y113.091
;Nearing path end, moving to preshutoff position
G00 X89.97 Y90.981
M107 ;Pump off
G00 X86.601 Y84.785
G4 P250 ;Pause for 250 milliseconds
;Completed path #7/72 on color #4
;Starting path #8/72, segments: 4, length: 138, color #4
G00 X94.546 Y172.184
M106 ;Pump on
G4 P450 ;Pause for 450 milliseconds
G00 X94.546 Y192.047
G00 X84.614 Y192.047
;Nearing path end, moving to preshutoff position
G00 X84.925 Y180.228
M107 ;Pump off
G00 X85.111 Y173.177
G4 P250 ;Pause for 250 milliseconds
;Completed path #8/72 on color #4
;Starting path #9/72, segments: 4, length: 349, color #4
G00 X166.053 Y142.886
M106 ;Pump on
G4 P450 ;Pause for 450 milliseconds
G00 X152.149 Y172.681
G00 X209.751 Y171.191
;Nearing path end, moving to preshutoff position
G00 X198.462 Y148.222
M107 ;Pump off
G00 X195.351 Y141.892
G4 P250 ;Pause for 250 milliseconds
;Completed path #9/72 on color #4
;Starting path #10/72, segments: 4, length: 292, color #4
G00 X187.405 Y113.587
M106 ;Pump on
G4 P450 ;Pause for 450 milliseconds
G00 X200.813 Y141.396
G00 X159.597 Y142.389
;Nearing path end, moving to preshutoff position
G00 X168.778 Y120.584
M107 ;Pump off
G00 X171.515 Y114.084
G4 P250 ;Pause for 250 milliseconds
;Completed path #10/72 on color #4
;Starting path #11/72, segments: 4, length: 263, color #4
G00 X177.97 Y85.282
M106 ;Pump on
G4 P450 ;Pause for 450 milliseconds
G00 X164.563 Y114.084
G00 X193.364 Y113.587
;Nearing path end, moving to preshutoff position
G00 X181.34 Y91.478
M107 ;Pump off
G00 X177.97 Y85.282
G4 P250 ;Pause for 250 milliseconds
;Completed path #11/72 on color #4
;Starting path #12/72, segments: 4, length: 349, color #4
G00 X207.086 Y69.577
M106 ;Pump on
G4 P450 ;Pause for 450 milliseconds
G00 X192.064 Y40.592
G00 X249.622 Y37.875
;Nearing path end, moving to preshutoff position
G00 X239.202 Y61.506
M107 ;Pump off
G00 X236.356 Y67.959
G4 P250 ;Pause for 250 milliseconds
;Completed path #12/72 on color #4
;Starting path #13/72, segments: 4, length: 292, color #4
G00 X231.509 Y96.871
M106 ;Pump on
G4 P450 ;Pause for 450 milliseconds
G00 X242.821 Y68.318
G00 X201.635 Y70.19
;Nearing path end, moving to preshutoff position
G00 X212.435 Y91.42
M107 ;Pump off
G00 X215.633 Y97.706
G4 P250 ;Pause for 250 milliseconds
;Completed path #13/72 on color #4
;Starting path #14/72, segments: 4, length: 263, color #4
G00 X225.669 Y125.804
M106 ;Pump on
G4 P450 ;Pause for 450 milliseconds
G00 X238.459 Y96.723
G00 X209.675 Y97.833
;Nearing path end, moving to preshutoff position
G00 X222.168 Y119.681
M107 ;Pump off
G00 X225.669 Y125.804
G4 P250 ;Pause for 250 milliseconds
;Completed path #14/72 on color #4
;Starting path #15/72, segments: 4, length: 292, color #4
G00 X255.933 Y121.036
M106 ;Pump on
G4 P450 ;Pause for 450 milliseconds
G00 X244.015 Y149.341
G00 X285.231 Y148.348
;Nearing path end, moving to preshutoff position
G00 X274.886 Y126.892
M107 ;Pump off
G00 X271.823 Y120.539
G4 P250 ;Pause for 250 milliseconds
;Completed path #15/72 on color #4
;Starting path #16/72, segments: 4, length: 349, color #4
G00 X279.769 Y148.845
M106 ;Pump on
G4 P450 ;Pause for 450 milliseconds
G00 X294.169 Y178.143
G00 X236.566 Y179.633
;Nearing path end, moving to preshutoff position
G00 X247.488 Y156.229
M107 ;Pump off
G00 X250.471 Y149.838
G4 P250 ;Pause for 250 milliseconds
;Completed path #16/72 on color #4
;Starting path #17/72, segments: 4, length: 138, color #4
G00 X260.899 Y180.626
M106 ;Pump on
G4 P450 ;Pause for 450 milliseconds
G00 X260.402 Y199.496
G00 X270.334 Y199.496
;Nearing path end, moving to preshutoff position
G00 X270.334 Y186.686
M107 ;Pump off
G00 X270.334 Y179.633
G4 P250 ;Pause for 250 milliseconds
;Completed path #17/72 on color #4
;Starting path #18/72, segments: 4, length: 263, color #4
G00 X310.087 Y127.293
M106 ;Pump on
G4 P450 ;Pause for 450 milliseconds
G00 X322.877 Y98.212
G00 X294.093 Y99.323
;Nearing path end, moving to preshutoff position
G00 X306.586 Y121.171
M107 ;Pump off
G00 X310.087 Y127.293
G4 P250 ;Pause for 250 milliseconds
;Completed path #18/72 on color #4
;Starting path #19/72, segments: 4, length: 292, color #4
G00 X315.927 Y98.361
M106 ;Pump on
G4 P450 ;Pause for 450 milliseconds
G00 X327.239 Y69.808
G00 X286.053 Y71.679
;Nearing path end, moving to preshutoff position
G00 X296.853 Y92.91
M107 ;Pump off
G00 X300.051 Y99.196
G4 P250 ;Pause for 250 milliseconds
;Completed path #19/72 on color #4
;Starting path #20/72, segments: 4, length: 349, color #4
G00 X291.504 Y71.066
M106 ;Pump on
G4 P450 ;Pause for 450 milliseconds
G00 X276.482 Y42.082
G00 X334.04 Y39.364
;Nearing path end, moving to preshutoff position
G00 X323.62 Y62.996
M107 ;Pump off
G00 X320.774 Y69.449
G4 P250 ;Pause for 250 milliseconds
;Completed path #20/72 on color #4
;Starting path #21/72, segments: 4, length: 138, color #4
G00 X310.188 Y38.89
M106 ;Pump on
G4 P450 ;Pause for 450 milliseconds
G00 X310.283 Y20.014
G00 X300.353 Y20.225
;Nearing path end, moving to preshutoff position
G00 X300.626 Y33.033
M107 ;Pump off
G00 X300.777 Y40.084
G4 P250 ;Pause for 250 milliseconds
;Completed path #21/72 on color #4
;Starting path #22/72, segments: 4, length: 263, color #4
G00 X262.388 Y92.234
M106 ;Pump on
G4 P450 ;Pause for 450 milliseconds
G00 X248.981 Y121.036
G00 X277.782 Y120.539
;Nearing path end, moving to preshutoff position
G00 X265.758 Y98.43
M107 ;Pump off
G00 X262.388 Y92.234
G4 P250 ;Pause for 250 milliseconds
;Completed path #22/72 on color #4
;Starting path #23/72, segments: 4, length: 138, color #4
G00 X225.771 Y37.4
M106 ;Pump on
G4 P450 ;Pause for 450 milliseconds
G00 X225.865 Y18.524
G00 X215.935 Y18.736
;Nearing path end, moving to preshutoff position
G00 X216.209 Y31.543
M107 ;Pump off
G00 X216.359 Y38.595
G4 P250 ;Pause for 250 milliseconds
;Completed path #23/72 on color #4
;Starting path #24/72, segments: 4, length: 138, color #4
G00 X185.916 Y172.681
M106 ;Pump on
G4 P450 ;Pause for 450 milliseconds
G00 X185.916 Y192.544
G00 X175.984 Y192.544
;Nearing path end, moving to preshutoff position
G00 X176.295 Y180.724
M107 ;Pump off
G00 X176.481 Y173.674
G4 P250 ;Pause for 250 milliseconds
;Completed path #24/72 on color #4
;Starting path #25/72, segments: 4, length: 349, color #4
G00 X337.868 Y147.851
M106 ;Pump on
G4 P450 ;Pause for 450 milliseconds
G00 X323.964 Y177.646
G00 X381.567 Y176.157
;Nearing path end, moving to preshutoff position
G00 X370.277 Y153.188
M107 ;Pump off
G00 X367.166 Y146.858
G4 P250 ;Pause for 250 milliseconds
;Completed path #25/72 on color #4
;Starting path #26/72, segments: 4, length: 292, color #4
G00 X359.221 Y118.553
M106 ;Pump on
G4 P450 ;Pause for 450 milliseconds
G00 X372.628 Y146.362
G00 X331.412 Y147.355
;Nearing path end, moving to preshutoff position
G00 X340.593 Y125.55
M107 ;Pump off
G00 X343.33 Y119.05
G4 P250 ;Pause for 250 milliseconds
;Completed path #26/72 on color #4
;Starting path #27/72, segments: 4, length: 263, color #4
G00 X349.786 Y90.248
M106 ;Pump on
G4 P450 ;Pause for 450 milliseconds
G00 X336.378 Y119.05
G00 X365.18 Y118.553
;Nearing path end, moving to preshutoff position
G00 X353.155 Y96.444
M107 ;Pump off
G00 X349.786 Y90.248
G4 P250 ;Pause for 250 milliseconds
;Completed path #27/72 on color #4
;Starting path #28/72, segments: 4, length: 349, color #4
G00 X378.405 Y71.563
M106 ;Pump on
G4 P450 ;Pause for 450 milliseconds
G00 X363.383 Y42.578
G00 X420.94 Y39.861
;Nearing path end, moving to preshutoff position
G00 X410.52 Y63.492
M107 ;Pump off
G00 X407.675 Y69.946
G4 P250 ;Pause for 250 milliseconds
;Completed path #28/72 on color #4
;Starting path #29/72, segments: 4, length: 292, color #4
G00 X402.828 Y98.857
M106 ;Pump on
G4 P450 ;Pause for 450 milliseconds
G00 X414.139 Y70.304
G00 X372.954 Y72.176
;Nearing path end, moving to preshutoff position
G00 X383.754 Y93.406
M107 ;Pump off
G00 X386.951 Y99.692
G4 P250 ;Pause for 250 milliseconds
;Completed path #29/72 on color #4
;Starting path #30/72, segments: 4, length: 263, color #4
G00 X396.988 Y127.79
M106 ;Pump on
G4 P450 ;Pause for 450 milliseconds
G00 X409.778 Y98.709
G00 X380.994 Y99.819
;Nearing path end, moving to preshutoff position
G00 X393.487 Y121.667
M107 ;Pump off
G00 X396.988 Y127.79
G4 P250 ;Pause for 250 milliseconds
;Completed path #30/72 on color #4
;Starting path #31/72, segments: 4, length: 292, color #4
G00 X427.374 Y119.172
M106 ;Pump on
G4 P450 ;Pause for 450 milliseconds
G00 X415.456 Y147.477
G00 X456.672 Y146.484
;Nearing path end, moving to preshutoff position
G00 X446.327 Y125.028
M107 ;Pump off
G00 X443.264 Y118.675
G4 P250 ;Pause for 250 milliseconds
;Completed path #31/72 on color #4
;Starting path #32/72, segments: 4, length: 349, color #4
G00 X451.21 Y146.981
M106 ;Pump on
G4 P450 ;Pause for 450 milliseconds
G00 X465.61 Y176.279
G00 X408.007 Y177.769
;Nearing path end, moving to preshutoff position
G00 X418.929 Y154.365
M107 ;Pump off
G00 X421.912 Y147.974
G4 P250 ;Pause for 250 milliseconds
;Completed path #32/72 on color #4
;Starting path #33/72, segments: 4, length: 138, color #4
G00 X432.34 Y178.762
M106 ;Pump on
G4 P450 ;Pause for 450 milliseconds
G00 X431.843 Y197.632
G00 X441.775 Y197.632
;Nearing path end, moving to preshutoff position
G00 X441.775 Y184.822
M107 ;Pump off
G00 X441.775 Y177.769
G4 P250 ;Pause for 250 milliseconds
;Completed path #33/72 on color #4
;Starting path #34/72, segments: 4, length: 138, color #4
G00 X357.731 Y177.646
M106 ;Pump on
G4 P450 ;Pause for 450 milliseconds
G00 X357.731 Y197.51
G00 X347.799 Y197.51
;Nearing path end, moving to preshutoff position
G00 X348.11 Y185.69
M107 ;Pump off
G00 X348.296 Y178.64
G4 P250 ;Pause for 250 milliseconds
;Completed path #34/72 on color #4
;Starting path #35/72, segments: 4, length: 263, color #4
G00 X433.829 Y89.874
M106 ;Pump on
G4 P450 ;Pause for 450 milliseconds
G00 X420.422 Y118.675
G00 X449.223 Y118.179
;Nearing path end, moving to preshutoff position
G00 X437.199 Y96.07
M107 ;Pump off
G00 X433.829 Y89.874
G4 P250 ;Pause for 250 milliseconds
;Completed path #35/72 on color #4
;Starting path #36/72, segments: 4, length: 138, color #4
G00 X397.089 Y39.387
M106 ;Pump on
G4 P450 ;Pause for 450 milliseconds
G00 X397.183 Y20.51
G00 X387.254 Y20.722
;Nearing path end, moving to preshutoff position
G00 X387.527 Y33.53
M107 ;Pump off
G00 X387.678 Y40.581
G4 P250 ;Pause for 250 milliseconds
;Completed path #36/72 on color #4
;Switching Color to: Medium dark
G4 P1000 ;Pause for 1000 milliseconds
G00 X1 Y1 ;Help homing
G28 X0 Y0 ;Home All Axis
M84 ;Motors off
M142 ;Bottle change
G4 P35000 ;Pause for 35000 milliseconds
;Starting path #37/72, segments: 6, length: 83, color #3
G00 X131.204 Y24.345
M106 ;Pump on
G4 P450 ;Pause for 450 milliseconds
G00 X131.204 Y36.4
G00 X129.114 Y36.4
G00 X128.919 Y34.838
;Nearing path end, moving to preshutoff position
G00 X128.919 Y30.774
M107 ;Pump off
G00 X128.919 Y23.721
G4 P250 ;Pause for 250 milliseconds
;Completed path #37/72 on color #3
;Starting path #38/72, segments: 6, length: 84, color #3
G00 X222.101 Y24.31
M106 ;Pump on
G4 P450 ;Pause for 450 milliseconds
G00 X222.101 Y35.385
G00 X219.815 Y35.385
;Nearing path end, moving to preshutoff position
G00 X219.815 Y28.809
M107 ;Pump off
G00 X219.815 Y22.435
G00 X220.494 Y22.435
G4 P250 ;Pause for 250 milliseconds
;Completed path #38/72 on color #3
;Starting path #39/72, segments: 5, length: 82, color #3
G00 X306.396 Y26.057
M106 ;Pump on
G4 P450 ;Pause for 450 milliseconds
G00 X306.396 Y36.908
G00 X304.111 Y36.908
;Nearing path end, moving to preshutoff position
G00 X304.111 Y31.11
M107 ;Pump off
G00 X304.111 Y24.057
G4 P250 ;Pause for 250 milliseconds
;Completed path #39/72 on color #3
;Starting path #40/72, segments: 9, length: 88, color #3
G00 X393.231 Y37.416
M106 ;Pump on
G4 P450 ;Pause for 450 milliseconds
G00 X391.249 Y37.416
G00 X390.945 Y36.199
;Nearing path end, moving to preshutoff position
G00 X390.945 Y29.088
M107 ;Pump off
G00 X390.945 Y24.389
G00 X390.975 Y24.382
G00 X391.153 Y24.329
G00 X392.266 Y23.958
G00 X393.231 Y23.958
G4 P250 ;Pause for 250 milliseconds
;Completed path #40/72 on color #3
;Starting path #41/72, segments: 10, length: 84, color #3
G00 X353.622 Y181.205
M106 ;Pump on
G4 P450 ;Pause for 450 milliseconds
G00 X353.622 Y193.821
G00 X351.532 Y193.821
G00 X351.36 Y192.449
G00 X351.817 Y189.247
G00 X351.833 Y189.113
G00 X351.842 Y188.98
G00 X351.844 Y188.87
;Nearing path end, moving to preshutoff position
G00 X351.844 Y187.724
M107 ;Pump off
G00 X351.844 Y180.671
G4 P250 ;Pause for 250 milliseconds
;Completed path #41/72 on color #3
;Starting path #42/72, segments: 8, length: 82, color #3
G00 X437.917 Y182.762
M106 ;Pump on
G4 P450 ;Pause for 450 milliseconds
G00 X437.917 Y193.821
G00 X435.631 Y193.821
;Nearing path end, moving to preshutoff position
G00 X435.631 Y187.678
M107 ;Pump off
G00 X435.631 Y184.448
G00 X436.029 Y180.871
G00 X436.147 Y180.868
G00 X436.253 Y180.86
G4 P250 ;Pause for 250 milliseconds
;Completed path #42/72 on color #3
;Starting path #43/72, segments: 8, length: 87, color #3
G00 X266.28 Y195.853
M106 ;Pump on
G4 P450 ;Pause for 450 milliseconds
G00 X264.148 Y195.853
G00 X264.003 Y194.834
;Nearing path end, moving to preshutoff position
G00 X264.329 Y187.666
M107 ;Pump off
G00 X264.499 Y183.913
G00 X264.502 Y183.792
G00 X264.502 Y182.395
G00 X266.28 Y182.395
G4 P250 ;Pause for 250 milliseconds
;Completed path #43/72 on color #3
;Starting path #44/72, segments: 14, length: 87, color #3
G00 X181.985 Y188.743
M106 ;Pump on
G4 P450 ;Pause for 450 milliseconds
G00 X179.699 Y188.743
G00 X179.699 Y186.908
;Nearing path end, moving to preshutoff position
G00 X180.015 Y180.895
M107 ;Pump off
G00 X180.203 Y177.33
G00 X180.207 Y177.19
G00 X180.207 Y175.716
G00 X180.237 Y175.709
G00 X180.366 Y175.673
G00 X180.493 Y175.629
G00 X180.618 Y175.58
G00 X180.764 Y175.512
G00 X181.217 Y175.286
G00 X181.985 Y175.286
G4 P250 ;Pause for 250 milliseconds
;Completed path #44/72 on color #3
;Starting path #45/72, segments: 21, length: 85, color #3
G00 X90.58 Y175.393
M106 ;Pump on
G4 P450 ;Pause for 450 milliseconds
G00 X90.58 Y188.235
G00 X88.294 Y188.235
;Nearing path end, moving to preshutoff position
G00 X88.294 Y181.271
M107 ;Pump off
G00 X88.294 Y179.042
G00 X88.723 Y177.329
G00 X88.752 Y177.198
G00 X88.774 Y177.065
G00 X88.79 Y176.932
G00 X88.8 Y176.798
G00 X88.802 Y176.682
G00 X88.802 Y175.283
G00 X88.81 Y175.282
G00 X88.944 Y175.272
G00 X89.077 Y175.255
G00 X89.209 Y175.232
G00 X89.34 Y175.201
G00 X89.469 Y175.165
G00 X89.597 Y175.121
G00 X89.721 Y175.072
G00 X89.774 Y175.048
G4 P250 ;Pause for 250 milliseconds
;Completed path #45/72 on color #3
;Switching Color to: Light
G4 P1000 ;Pause for 1000 milliseconds
G00 X1 Y1 ;Help homing
G28 X0 Y0 ;Home All Axis
M84 ;Motors off
M142 ;Bottle change
G4 P35000 ;Pause for 35000 milliseconds
;Starting path #46/72, segments: 70, length: 647, color #1
G00 X135.623 Y55.518
M106 ;Pump on
G4 P450 ;Pause for 450 milliseconds
G00 X127.706 Y56.206
G00 X125.06 Y56.206
G00 X124.395 Y54.933
G00 X127.854 Y54.933
G00 X128.102 Y54.929
G00 X128.361 Y54.92
G00 X128.607 Y54.907
G00 X136.127 Y54.438
G00 X135.623 Y55.518
G00 X140.314 Y58.073
G00 X140.273 Y58.162
G00 X139.209 Y60.558
G00 X127.938 Y61.538
G00 X121.859 Y61.538
G00 X121.127 Y60.194
G00 X115.657 Y49.71
G00 X117.816 Y49.602
G00 X127.776 Y49.602
G00 X127.939 Y49.6
G00 X128.105 Y49.595
G00 X128.275 Y49.587
G00 X136.151 Y49.094
G00 X138.948 Y49.094
G00 X139.138 Y49.091
G00 X139.328 Y49.084
G00 X139.518 Y49.074
G00 X144.644 Y48.708
G00 X143.857 Y50.479
G00 X140.314 Y58.073
G00 X145.145 Y60.327
G00 X143.114 Y64.897
G00 X143.074 Y64.99
G00 X142.729 Y65.853
G00 X139.964 Y65.853
G00 X139.829 Y65.857
G00 X139.733 Y65.864
G00 X128.17 Y66.869
G00 X118.695 Y66.869
G00 X116.415 Y62.69
G00 X110.348 Y51.06
G00 X107.378 Y45.119
G00 X107.494 Y45.073
G00 X107.641 Y45.005
G00 X108.156 Y44.747
G00 X117.686 Y44.271
G00 X127.776 Y44.271
G00 X127.943 Y44.266
G00 X135.986 Y43.763
G00 X138.948 Y43.763
G00 X139.138 Y43.756
G00 X146.247 Y43.248
G00 X146.388 Y43.235
G00 X150.285 Y42.747
G00 X152.926 Y42.747
G00 X152.701 Y43.648
;Nearing path end, moving to preshutoff position
G00 X151.254 Y46.18
M107 ;Pump off
G00 X150.852 Y46.884
G00 X150.788 Y47.002
G00 X150.731 Y47.124
G00 X150.679 Y47.248
G00 X150.634 Y47.374
G00 X150.595 Y47.503
G00 X150.563 Y47.634
G00 X150.538 Y47.765
G00 X150.519 Y47.898
G00 X150.507 Y48.032
G00 X150.501 Y48.207
G00 X150.501 Y48.657
G00 X148.71 Y52.686
G4 P250 ;Pause for 250 milliseconds
;Completed path #46/72 on color #1
;Starting path #47/72, segments: 74, length: 367, color #1
G00 X137.56 Y81.416
M106 ;Pump on
G4 P450 ;Pause for 450 milliseconds
G00 X134.645 Y88.22
G00 X134.601 Y88.325
G00 X134.555 Y88.439
G00 X134.507 Y88.562
G00 X134.358 Y88.959
G00 X132.347 Y88.959
G00 X132.212 Y88.961
G00 X132.078 Y88.964
G00 X131.842 Y88.976
G00 X131.735 Y88.983
G00 X131.622 Y88.992
G00 X130.258 Y89.116
G00 X128.836 Y86.271
G00 X128.772 Y86.148
G00 X128.709 Y86.029
G00 X128.581 Y85.803
G00 X128.512 Y85.688
G00 X128.365 Y85.455
G00 X128.29 Y85.343
G00 X128.165 Y85.164
G00 X128.08 Y85.049
G00 X127.133 Y83.786
G00 X125.986 Y81.111
G00 X125.924 Y80.971
G00 X125.858 Y80.829
G00 X125.788 Y80.685
G00 X125.245 Y79.598
G00 X126.144 Y79.553
G00 X126.244 Y79.547
G00 X126.352 Y79.54
G00 X126.469 Y79.53
G00 X131.694 Y79.055
G00 X137.425 Y79.055
G00 X137.559 Y79.053
G00 X137.693 Y79.05
G00 X137.958 Y79.037
G00 X138.089 Y79.027
G00 X138.22 Y79.015
G00 X138.365 Y79.001
G00 X137.56 Y81.416
G00 X142.548 Y83.314
G00 X139.545 Y90.32
G00 X139.499 Y90.434
G00 X138.053 Y94.291
G00 X132.347 Y94.291
G00 X132.212 Y94.294
G00 X132.105 Y94.302
G00 X127.117 Y94.755
G00 X127.114 Y94.749
G00 X124.067 Y88.655
G00 X124.004 Y88.536
G00 X123.935 Y88.421
G00 X123.86 Y88.309
G00 X123.815 Y88.248
G00 X122.484 Y86.472
G00 X121.086 Y83.211
G00 X121.02 Y83.069
G00 X116.958 Y74.944
G00 X116.888 Y74.814
G00 X116.813 Y74.681
G00 X125.878 Y74.228
G00 X125.987 Y74.221
G00 X131.453 Y73.724
G00 X137.425 Y73.724
G00 X137.559 Y73.72
G00 X137.69 Y73.711
G00 X142.636 Y73.216
G00 X144.748 Y73.216
;Nearing path end, moving to preshutoff position
G00 X145.021 Y73.277
M107 ;Pump off
G00 X146.293 Y73.559
G00 X144.115 Y78.641
G00 X144.065 Y78.766
G00 X144.036 Y78.848
G4 P250 ;Pause for 250 milliseconds
;Completed path #47/72 on color #1
;Starting path #48/72, segments: 40, length: 147, color #1
G00 X141.116 Y103.306
M106 ;Pump on
G4 P450 ;Pause for 450 milliseconds
G00 X139.557 Y107.049
G00 X136.025 Y114.618
G00 X135.99 Y114.695
G00 X134.323 Y118.586
G00 X133.806 Y117.294
G00 X133.753 Y117.171
G00 X133.694 Y117.05
G00 X133.629 Y116.933
G00 X133.558 Y116.819
G00 X133.481 Y116.708
G00 X133.399 Y116.602
G00 X133.311 Y116.5
G00 X133.216 Y116.399
G00 X132.645 Y115.829
G00 X132.336 Y114.902
G00 X132.291 Y114.776
G00 X132.239 Y114.652
G00 X132.181 Y114.531
G00 X132.116 Y114.413
G00 X132.046 Y114.298
G00 X131.94 Y114.146
G00 X130.561 Y112.308
G00 X128.129 Y107.444
G00 X128.066 Y107.325
G00 X127.997 Y107.21
G00 X127.923 Y107.098
G00 X127.878 Y107.037
G00 X126.499 Y105.198
G00 X125.15 Y102.501
G00 X125.195 Y102.485
G00 X125.319 Y102.433
G00 X125.414 Y102.388
G00 X125.867 Y102.161
G00 X129.3 Y102.161
G00 X129.434 Y102.158
G00 X129.521 Y102.152
;Nearing path end, moving to preshutoff position
G00 X130.774 Y102.048
M107 ;Pump off
G00 X135.505 Y101.653
G00 X137.811 Y101.653
G4 P250 ;Pause for 250 milliseconds
;Completed path #48/72 on color #1
;Starting path #49/72, segments: 34, length: 149, color #1
G00 X178.794 Y94.75
M106 ;Pump on
G4 P450 ;Pause for 450 milliseconds
G00 X185.839 Y107.833
G00 X186.685 Y109.526
G00 X186.599 Y109.526
G00 X186.416 Y109.538
G00 X181.47 Y110.033
G00 X170.429 Y110.033
G00 X172.816 Y105.258
G00 X172.873 Y105.136
G00 X172.924 Y105.012
G00 X172.968 Y104.885
G00 X173.006 Y104.756
G00 X173.038 Y104.626
G00 X173.063 Y104.494
G00 X173.081 Y104.361
G00 X173.093 Y104.227
G00 X173.097 Y104.066
G00 X173.097 Y103.858
G00 X173.665 Y103.005
G00 X173.737 Y102.892
G00 X173.832 Y102.719
;Nearing path end, moving to preshutoff position
G00 X175.209 Y99.964
M107 ;Pump off
G00 X176.371 Y97.641
G00 X176.428 Y97.519
G00 X176.478 Y97.395
G00 X176.523 Y97.268
G00 X176.561 Y97.139
G00 X176.592 Y97.009
G00 X176.618 Y96.876
G00 X176.636 Y96.743
G00 X176.647 Y96.61
G00 X176.652 Y96.449
G00 X176.652 Y96.124
G00 X178.058 Y93.593
G4 P250 ;Pause for 250 milliseconds
;Completed path #49/72 on color #1
;Starting path #50/72, segments: 83, length: 367, color #1
G00 X185.349 Y129.947
M106 ;Pump on
G4 P450 ;Pause for 450 milliseconds
G00 X185.359 Y130.021
G00 X185.398 Y130.276
G00 X185.421 Y130.409
G00 X185.457 Y130.595
G00 X185.479 Y130.693
G00 X185.509 Y130.824
G00 X185.571 Y131.063
G00 X185.608 Y131.193
G00 X185.691 Y131.46
G00 X185.735 Y131.588
G00 X185.826 Y131.835
G00 X185.875 Y131.96
G00 X185.949 Y132.135
G00 X185.993 Y132.234
G00 X186.061 Y132.38
G00 X186.13 Y132.524
G00 X186.142 Y132.548
G00 X184.89 Y132.631
G00 X173.466 Y132.631
G00 X173.496 Y132.575
G00 X173.556 Y132.455
G00 X173.675 Y132.199
G00 X173.729 Y132.075
G00 X173.822 Y131.847
G00 X173.87 Y131.721
G00 X173.963 Y131.453
G00 X174.004 Y131.325
G00 X174.07 Y131.102
G00 X174.099 Y130.998
G00 X174.128 Y130.888
G00 X174.449 Y129.602
G00 X177.657 Y122.727
G00 X181.739 Y122.727
G00 X185.349 Y129.947
G00 X190.631 Y129.216
G00 X190.648 Y129.35
G00 X190.671 Y129.482
G00 X190.702 Y129.613
G00 X190.738 Y129.742
G00 X190.781 Y129.87
G00 X190.831 Y129.994
G00 X190.899 Y130.14
G00 X194.555 Y137.455
G00 X192.775 Y137.455
G00 X192.598 Y137.46
G00 X185.067 Y137.962
G00 X171.447 Y137.962
G00 X171.313 Y137.966
G00 X171.179 Y137.976
G00 X171.046 Y137.993
G00 X170.914 Y138.016
G00 X170.801 Y138.042
G00 X169.088 Y138.47
G00 X165.086 Y138.47
G00 X165.33 Y137.496
G00 X167.738 Y132.679
G00 X167.795 Y132.558
G00 X167.846 Y132.434
G00 X167.89 Y132.307
G00 X167.928 Y132.178
G00 X167.96 Y132.047
G00 X167.985 Y131.915
G00 X168.003 Y131.782
G00 X168.015 Y131.649
G00 X168.019 Y131.487
G00 X168.019 Y131.279
G00 X168.587 Y130.427
G00 X168.659 Y130.313
G00 X168.725 Y130.196
G00 X168.785 Y130.076
G00 X168.838 Y129.953
G00 X168.886 Y129.827
G00 X168.927 Y129.699
G00 X168.955 Y129.595
G00 X169.401 Y127.812
G00 X172.868 Y120.383
G00 X174.195 Y117.395
G00 X185.034 Y117.395
;Nearing path end, moving to preshutoff position
G00 X187.696 Y122.72
M107 ;Pump off
G00 X190.617 Y128.562
G00 X190.617 Y128.948
G00 X190.621 Y129.083
G4 P250 ;Pause for 250 milliseconds
;Completed path #50/72 on color #1
;Starting path #51/72, segments: 119, length: 639, color #1
G00 X195.714 Y150.981
M106 ;Pump on
G4 P450 ;Pause for 450 milliseconds
G00 X188.318 Y145.325
G00 X176.746 Y145.325
G00 X173.917 Y145.796
G00 X173.747 Y145.819
G00 X173.613 Y145.829
G00 X173.479 Y145.833
G00 X168.635 Y145.833
G00 X167.804 Y147.772
G00 X167.732 Y147.926
G00 X167.668 Y148.044
G00 X165.768 Y151.371
G00 X164.836 Y154.166
G00 X164.806 Y154.252
G00 X164.756 Y154.377
G00 X164.699 Y154.499
G00 X164.637 Y154.618
G00 X162.434 Y158.584
G00 X162.434 Y158.909
G00 X162.432 Y159.017
G00 X162.423 Y159.151
G00 X162.407 Y159.284
G00 X162.385 Y159.417
G00 X162.356 Y159.548
G00 X162.32 Y159.677
G00 X162.279 Y159.805
G00 X162.23 Y159.93
G00 X162.176 Y160.053
G00 X162.115 Y160.173
G00 X158.632 Y166.641
G00 X157.916 Y168.431
G00 X175.289 Y168.431
G00 X178.119 Y167.959
G00 X178.289 Y167.937
G00 X178.422 Y167.926
G00 X178.557 Y167.923
G00 X195.166 Y167.923
G00 X199.59 Y167.432
G00 X199.75 Y167.419
G00 X199.884 Y167.415
G00 X203.442 Y167.415
G00 X202.578 Y165.687
G00 X202.547 Y165.622
G00 X195.714 Y150.981
G00 X191.436 Y154.421
G00 X186.513 Y150.656
G00 X177.188 Y150.656
G00 X174.793 Y151.055
G00 X174.622 Y151.081
G00 X174.452 Y151.104
G00 X174.34 Y151.117
G00 X174.151 Y151.135
G00 X174.017 Y151.145
G00 X173.747 Y151.159
G00 X173.613 Y151.162
G00 X173.479 Y151.164
G00 X172.026 Y151.164
G00 X170.659 Y153.556
G00 X169.894 Y155.852
G00 X169.837 Y156.015
G00 X169.752 Y156.241
G00 X169.702 Y156.366
G00 X169.597 Y156.609
G00 X169.541 Y156.731
G00 X169.424 Y156.968
G00 X169.362 Y157.087
G00 X169.297 Y157.207
G00 X167.669 Y160.139
G00 X167.664 Y160.172
G00 X167.642 Y160.304
G00 X167.593 Y160.557
G00 X167.564 Y160.689
G00 X167.497 Y160.961
G00 X167.461 Y161.09
G00 X167.385 Y161.343
G00 X167.343 Y161.471
G00 X167.251 Y161.727
G00 X167.203 Y161.852
G00 X167.104 Y162.092
G00 X167.049 Y162.215
G00 X166.933 Y162.459
G00 X166.873 Y162.579
G00 X166.809 Y162.7
G00 X166.594 Y163.1
G00 X174.847 Y163.1
G00 X177.242 Y162.7
G00 X177.413 Y162.675
G00 X177.583 Y162.652
G00 X177.696 Y162.638
G00 X177.885 Y162.621
G00 X178.018 Y162.61
G00 X178.288 Y162.597
G00 X178.422 Y162.593
G00 X178.557 Y162.592
G00 X194.87 Y162.592
G00 X195.231 Y162.551
G00 X191.436 Y154.421
G00 X186.373 Y157.261
G00 X184.708 Y155.988
G00 X177.63 Y155.988
;Nearing path end, moving to preshutoff position
G00 X177.355 Y156.033
M107 ;Pump off
G00 X175.67 Y156.314
G00 X175.414 Y156.353
G00 X175.343 Y156.363
G00 X174.951 Y157.538
G00 X174.9 Y157.686
G00 X176.366 Y157.442
G00 X176.622 Y157.403
G00 X176.878 Y157.367
G00 X177.058 Y157.345
G00 X177.192 Y157.331
G00 X177.381 Y157.313
G00 X177.481 Y157.304
G00 X177.614 Y157.294
G00 X177.751 Y157.286
G00 X178.02 Y157.272
G00 X178.153 Y157.267
G00 X178.288 Y157.264
G00 X178.49 Y157.261
G4 P250 ;Pause for 250 milliseconds
;Completed path #51/72 on color #1
;Starting path #52/72, segments: 36, length: 154, color #1
G00 X232.433 Y101.003
M106 ;Pump on
G4 P450 ;Pause for 450 milliseconds
G00 X231.114 Y103.202
G00 X231.048 Y103.319
G00 X230.987 Y103.439
G00 X230.933 Y103.562
G00 X230.885 Y103.688
G00 X230.844 Y103.815
G00 X230.809 Y103.945
G00 X230.78 Y104.076
G00 X230.759 Y104.209
G00 X230.744 Y104.342
G00 X230.735 Y104.476
G00 X230.734 Y104.574
G00 X230.734 Y105.024
G00 X226.918 Y113.609
G00 X225.083 Y117.508
G00 X224.091 Y116.02
G00 X223.179 Y113.74
G00 X223.126 Y113.616
G00 X223.067 Y113.496
G00 X223.019 Y113.407
G00 X216.925 Y102.743
G00 X216.855 Y102.628
G00 X216.78 Y102.517
G00 X216.699 Y102.41
G00 X216.613 Y102.307
G00 X216.496 Y102.181
G00 X215.925 Y101.61
G00 X215.77 Y101.145
G00 X223.243 Y101.145
G00 X223.378 Y101.142
G00 X223.511 Y101.132
G00 X223.62 Y101.119
;Nearing path end, moving to preshutoff position
G00 X225.487 Y100.852
M107 ;Pump off
G00 X226.988 Y100.638
G00 X232.524 Y100.638
G4 P250 ;Pause for 250 milliseconds
;Completed path #52/72 on color #1
;Starting path #53/72, segments: 91, length: 368, color #1
G00 X233.518 Y80.605
M106 ;Pump on
G4 P450 ;Pause for 450 milliseconds
G00 X236.32 Y74.535
G00 X236.32 Y74.105
G00 X236.321 Y74.015
G00 X236.329 Y73.881
G00 X236.344 Y73.748
G00 X236.365 Y73.615
G00 X236.393 Y73.484
G00 X236.428 Y73.354
G00 X236.469 Y73.226
G00 X236.516 Y73.101
G00 X236.57 Y72.977
G00 X236.63 Y72.857
G00 X236.696 Y72.74
G00 X236.767 Y72.626
G00 X237.051 Y72.2
G00 X231.801 Y72.2
G00 X230.688 Y72.571
G00 X230.509 Y72.624
G00 X230.379 Y72.654
G00 X230.246 Y72.678
G00 X230.113 Y72.695
G00 X229.979 Y72.705
G00 X229.845 Y72.708
G00 X223.409 Y72.708
G00 X219.512 Y73.195
G00 X219.315 Y73.213
G00 X219.181 Y73.216
G00 X211.676 Y73.216
G00 X207.463 Y73.567
G00 X215.458 Y89.137
G00 X217.781 Y93.783
G00 X219.141 Y93.783
G00 X219.189 Y93.748
G00 X219.301 Y93.674
G00 X219.417 Y93.607
G00 X219.536 Y93.545
G00 X219.659 Y93.489
G00 X219.783 Y93.439
G00 X219.91 Y93.396
G00 X220.04 Y93.359
G00 X220.17 Y93.329
G00 X220.303 Y93.306
G00 X220.436 Y93.289
G00 X220.57 Y93.278
G00 X220.704 Y93.275
G00 X228.649 Y93.275
G00 X230.417 Y88.857
G00 X233.273 Y82.191
G00 X233.273 Y81.722
G00 X233.274 Y81.644
G00 X233.281 Y81.51
G00 X233.295 Y81.376
G00 X233.316 Y81.244
G00 X233.343 Y81.112
G00 X233.377 Y80.982
G00 X233.418 Y80.854
G00 X233.465 Y80.728
G00 X233.518 Y80.605
G00 X228.677 Y78.371
G00 X228.83 Y78.039
G00 X223.74 Y78.039
G00 X220.173 Y78.485
G00 X219.978 Y78.506
G00 X219.782 Y78.524
G00 X219.639 Y78.534
G00 X219.45 Y78.542
G00 X219.315 Y78.546
G00 X219.181 Y78.547
G00 X216.014 Y78.547
G00 X220.201 Y86.702
G00 X220.822 Y87.944
G00 X225.04 Y87.944
G00 X225.466 Y86.877
G00 X225.516 Y86.758
;Nearing path end, moving to preshutoff position
G00 X226.227 Y85.099
M107 ;Pump off
G00 X227.973 Y81.023
G00 X227.978 Y80.96
G00 X227.992 Y80.826
G00 X228.029 Y80.544
G00 X228.05 Y80.411
G00 X228.097 Y80.154
G00 X228.125 Y80.023
G00 X228.184 Y79.769
G00 X228.218 Y79.639
G00 X228.296 Y79.369
G00 X228.337 Y79.241
G00 X228.424 Y78.988
G00 X228.471 Y78.862
G00 X228.567 Y78.622
G00 X228.621 Y78.498
G4 P250 ;Pause for 250 milliseconds
;Completed path #53/72 on color #1
;Starting path #54/72, segments: 141, length: 642, color #1
G00 X236.562 Y58.265
M106 ;Pump on
G4 P450 ;Pause for 450 milliseconds
G00 X240.591 Y48.696
G00 X243.145 Y42.857
G00 X240.895 Y41.732
G00 X239.151 Y41.732
G00 X235.254 Y42.219
G00 X235.1 Y42.234
G00 X227.483 Y42.742
G00 X227.306 Y42.747
G00 X217.298 Y42.747
G00 X212.874 Y43.239
G00 X212.784 Y43.247
G00 X206.182 Y43.755
G00 X206.112 Y43.76
G00 X205.978 Y43.763
G00 X198.074 Y43.763
G00 X197.976 Y43.779
G00 X198.59 Y44.763
G00 X198.662 Y44.884
G00 X198.724 Y45.003
G00 X198.78 Y45.125
G00 X200.256 Y48.57
G00 X203.755 Y55.068
G00 X203.83 Y55.218
G00 X203.883 Y55.342
G00 X204.695 Y57.372
G00 X205.324 Y58.001
G00 X205.434 Y58.119
G00 X205.521 Y58.221
G00 X205.602 Y58.328
G00 X205.678 Y58.439
G00 X205.748 Y58.554
G00 X205.812 Y58.672
G00 X205.87 Y58.793
G00 X205.922 Y58.917
G00 X205.968 Y59.043
G00 X206.397 Y60.332
G00 X208.816 Y64.685
G00 X208.848 Y64.746
G00 X208.908 Y64.867
G00 X208.961 Y64.99
G00 X209.306 Y65.853
G00 X216.209 Y65.853
G00 X217.322 Y65.482
G00 X217.502 Y65.43
G00 X217.633 Y65.399
G00 X217.765 Y65.376
G00 X217.898 Y65.359
G00 X218.032 Y65.349
G00 X228.188 Y64.841
G00 X228.321 Y64.838
G00 X233.275 Y64.838
G00 X236.562 Y58.265
G00 X231.715 Y56.037
G00 X235.282 Y47.565
G00 X227.838 Y48.061
G00 X227.656 Y48.07
G00 X227.479 Y48.076
G00 X227.306 Y48.079
G00 X217.594 Y48.079
G00 X213.463 Y48.538
G00 X213.283 Y48.555
G00 X206.591 Y49.071
G00 X206.581 Y49.072
G00 X208.449 Y52.54
G00 X208.528 Y52.692
G00 X208.602 Y52.843
G00 X208.649 Y52.938
G00 X208.727 Y53.111
G00 X208.78 Y53.235
G00 X208.833 Y53.362
G00 X209.242 Y54.386
G00 X209.32 Y54.468
G00 X209.507 Y54.678
G00 X209.593 Y54.781
G00 X209.656 Y54.856
G00 X209.773 Y55.005
G00 X209.854 Y55.112
G00 X210.005 Y55.322
G00 X210.08 Y55.433
G00 X210.228 Y55.661
G00 X210.298 Y55.776
G00 X210.427 Y55.999
G00 X210.491 Y56.117
G00 X210.538 Y56.204
G00 X210.623 Y56.374
G00 X210.681 Y56.495
G00 X210.784 Y56.725
G00 X210.836 Y56.849
G00 X210.935 Y57.103
G00 X210.981 Y57.229
G00 X211.026 Y57.357
G00 X211.299 Y58.177
G00 X212.602 Y60.522
G00 X215.344 Y60.522
G00 X215.636 Y60.425
G00 X215.817 Y60.368
G00 X215.996 Y60.315
G00 X216.123 Y60.28
G00 X216.307 Y60.234
G00 X216.438 Y60.204
G00 X216.691 Y60.152
G00 X216.823 Y60.128
G00 X216.919 Y60.112
G00 X217.107 Y60.085
G00 X217.24 Y60.068
G00 X217.495 Y60.043
G00 X217.629 Y60.033
G00 X217.766 Y60.024
G00 X227.922 Y59.517
G00 X228.053 Y59.512
G00 X228.186 Y59.508
G00 X228.321 Y59.506
G00 X229.981 Y59.506
G00 X231.715 Y56.037
G00 X226.869 Y53.808
G00 X227.037 Y53.409
G00 X217.891 Y53.41
G00 X215.246 Y53.704
G00 X215.306 Y53.82
G00 X215.391 Y53.99
G00 X215.433 Y54.076
G00 X215.491 Y54.197
G00 X215.545 Y54.313
G00 X215.648 Y54.543
G00 X215.698 Y54.658
G00 X215.75 Y54.781
G00 X215.797 Y54.896
G00 X215.881 Y54.881
G00 X216.027 Y54.856
G00 X216.158 Y54.835
G00 X216.346 Y54.808
G00 X216.449 Y54.794
G00 X216.582 Y54.778
G00 X216.712 Y54.763
G00 X216.968 Y54.738
G00 X217.092 Y54.727
G00 X217.227 Y54.717
G00 X217.437 Y54.703
;Nearing path end, moving to preshutoff position
G00 X219.608 Y54.595
M107 ;Pump off
G00 X226.652 Y54.242
G4 P250 ;Pause for 250 milliseconds
;Completed path #54/72 on color #1
;Starting path #55/72, segments: 39, length: 152, color #1
G00 X267.602 Y109.371
M106 ;Pump on
G4 P450 ;Pause for 450 milliseconds
G00 X271.234 Y116.634
G00 X269.961 Y116.634
G00 X269.827 Y116.638
G00 X269.74 Y116.643
G00 X263.756 Y117.142
G00 X254.823 Y117.142
G00 X255.614 Y115.362
G00 X257.619 Y111.351
G00 X257.676 Y111.23
G00 X257.727 Y111.106
G00 X257.772 Y110.979
G00 X257.809 Y110.85
G00 X257.841 Y110.719
G00 X257.866 Y110.587
G00 X257.884 Y110.454
G00 X257.896 Y110.321
G00 X257.9 Y110.159
G00 X257.9 Y109.951
G00 X258.469 Y109.099
G00 X258.54 Y108.985
G00 X258.635 Y108.812
;Nearing path end, moving to preshutoff position
G00 X259.695 Y106.693
M107 ;Pump off
G00 X261.174 Y103.734
G00 X261.231 Y103.613
G00 X261.281 Y103.489
G00 X261.326 Y103.362
G00 X261.364 Y103.233
G00 X261.396 Y103.102
G00 X261.421 Y102.97
G00 X261.439 Y102.837
G00 X261.45 Y102.703
G00 X261.455 Y102.542
G00 X261.455 Y102.334
G00 X262.023 Y101.482
G00 X262.095 Y101.368
G00 X262.161 Y101.251
G00 X262.232 Y101.106
G00 X262.582 Y100.335
G4 P250 ;Pause for 250 milliseconds
;Completed path #55/72 on color #1
;Starting path #56/72, segments: 70, length: 369, color #1
G00 X271.117 Y127.572
M106 ;Pump on
G4 P450 ;Pause for 450 milliseconds
G00 X269.436 Y124.21
G00 X267.245 Y124.484
G00 X267.049 Y124.501
G00 X266.914 Y124.505
G00 X258.354 Y124.505
G00 X257.9 Y125.186
G00 X257.9 Y125.394
G00 X257.899 Y125.483
G00 X257.891 Y125.617
G00 X257.876 Y125.751
G00 X257.855 Y125.884
G00 X257.827 Y126.015
G00 X257.792 Y126.145
G00 X257.752 Y126.273
G00 X257.704 Y126.398
G00 X257.65 Y126.521
G00 X257.59 Y126.642
G00 X257.524 Y126.759
G00 X257.453 Y126.872
G00 X256.885 Y127.725
G00 X256.885 Y127.933
G00 X256.884 Y128.004
G00 X256.877 Y128.138
G00 X256.863 Y128.271
G00 X256.843 Y128.404
G00 X256.816 Y128.536
G00 X256.782 Y128.666
G00 X256.742 Y128.794
G00 X256.695 Y128.92
G00 X256.642 Y129.044
G00 X251.16 Y141.006
G00 X250.712 Y142.798
G00 X250.683 Y142.902
G00 X250.642 Y143.03
G00 X250.595 Y143.156
G00 X250.541 Y143.279
G00 X250.481 Y143.399
G00 X250.415 Y143.516
G00 X250.344 Y143.63
G00 X249.776 Y144.482
G00 X249.776 Y144.69
G00 X249.774 Y144.78
G00 X249.766 Y144.914
G00 X249.752 Y145.048
G00 X249.748 Y145.072
G00 X269.813 Y145.072
G00 X274.237 Y144.58
G00 X274.397 Y144.567
G00 X274.531 Y144.564
G00 X279.105 Y144.564
G00 X278.241 Y142.836
G00 X278.21 Y142.771
G00 X271.117 Y127.572
G00 X266.31 Y129.879
G00 X266.288 Y129.836
G00 X261.985 Y129.836
G00 X261.975 Y129.879
G00 X261.941 Y130.009
G00 X261.872 Y130.25
G00 X261.832 Y130.379
G00 X261.74 Y130.648
G00 X261.694 Y130.774
G00 X261.598 Y131.015
G00 X261.545 Y131.139
G00 X261.489 Y131.265
G00 X257.604 Y139.74
;Nearing path end, moving to preshutoff position
G00 X263.799 Y139.74
M107 ;Pump off
G00 X269.517 Y139.74
G00 X270.843 Y139.593
G4 P250 ;Pause for 250 milliseconds
;Completed path #56/72 on color #1
;Starting path #57/72, segments: 133, length: 645, color #1
G00 X271.123 Y163.614
M106 ;Pump on
G4 P450 ;Pause for 450 milliseconds
G00 X271.15 Y163.744
G00 X271.184 Y163.895
G00 X271.214 Y164.026
G00 X271.245 Y164.15
G00 X271.301 Y164.37
G00 X262.778 Y164.37
G00 X262.559 Y164.374
G00 X262.341 Y164.38
G00 X262.112 Y164.39
G00 X259.37 Y164.542
G00 X260.149 Y163.097
G00 X270.864 Y163.097
G00 X271.123 Y163.614
G00 X276.354 Y162.587
G00 X276.376 Y162.685
G00 X276.406 Y162.816
G00 X276.468 Y163.055
G00 X276.505 Y163.185
G00 X276.588 Y163.452
G00 X276.631 Y163.58
G00 X276.723 Y163.827
G00 X276.772 Y163.952
G00 X276.845 Y164.127
G00 X276.89 Y164.226
G00 X276.957 Y164.372
G00 X277.027 Y164.517
G00 X279.365 Y169.193
G00 X278.086 Y169.193
G00 X277.952 Y169.195
G00 X277.817 Y169.198
G00 X277.628 Y169.206
G00 X277.525 Y169.214
G00 X277.365 Y169.227
G00 X277.203 Y169.242
G00 X273.071 Y169.701
G00 X262.852 Y169.701
G00 X262.706 Y169.703
G00 X262.558 Y169.707
G00 X262.408 Y169.713
G00 X253.487 Y170.209
G00 X250.841 Y170.209
G00 X251.592 Y168.832
G00 X251.655 Y168.712
G00 X251.716 Y168.592
G00 X251.832 Y168.354
G00 X251.887 Y168.231
G00 X251.991 Y167.983
G00 X252.04 Y167.857
G00 X252.132 Y167.606
G00 X252.175 Y167.479
G00 X252.257 Y167.21
G00 X252.294 Y167.075
G00 X252.329 Y166.942
G00 X252.594 Y165.882
G00 X255.675 Y160.161
G00 X255.738 Y160.04
G00 X255.799 Y159.92
G00 X255.915 Y159.676
G00 X255.969 Y159.553
G00 X256.068 Y159.313
G00 X256.117 Y159.188
G00 X256.208 Y158.931
G00 X256.25 Y158.804
G00 X256.327 Y158.551
G00 X256.362 Y158.422
G00 X256.429 Y158.15
G00 X256.458 Y158.018
G00 X256.507 Y157.766
G00 X273 Y157.766
G00 X274.594 Y158.635
G00 X276.246 Y161.94
G00 X276.256 Y162.013
G00 X276.294 Y162.268
G00 X276.318 Y162.401
G00 X276.354 Y162.587
G00 X281.568 Y161.474
G00 X281.598 Y161.605
G00 X281.635 Y161.734
G00 X281.678 Y161.862
G00 X281.728 Y161.986
G00 X281.795 Y162.132
G00 X287.991 Y174.525
G00 X278.086 Y174.525
G00 X277.952 Y174.528
G00 X277.791 Y174.541
G00 X273.367 Y175.032
G00 X262.852 Y175.032
G00 X262.704 Y175.036
G00 X253.637 Y175.54
G00 X242.514 Y175.54
G00 X243.955 Y171.7
G00 X246.911 Y166.279
G00 X246.973 Y166.16
G00 X247.028 Y166.037
G00 X247.077 Y165.912
G00 X247.119 Y165.785
G00 X247.157 Y165.649
G00 X247.584 Y163.942
G00 X250.98 Y157.634
G00 X251.041 Y157.514
G00 X251.096 Y157.391
G00 X251.144 Y157.266
G00 X251.186 Y157.138
G00 X251.222 Y157.009
G00 X251.25 Y156.878
G00 X251.273 Y156.745
G00 X251.288 Y156.612
G00 X251.297 Y156.478
G00 X251.299 Y156.37
G00 X251.299 Y156.063
G00 X252.979 Y153.122
G00 X253.043 Y153.004
G00 X253.072 Y152.942
G00 X253.204 Y152.942
G00 X253.338 Y152.939
G00 X253.472 Y152.928
G00 X253.605 Y152.912
G00 X253.738 Y152.888
G00 X253.868 Y152.858
G00 X253.998 Y152.821
G00 X254.125 Y152.778
G00 X254.249 Y152.728
G00 X254.396 Y152.661
G00 X254.849 Y152.434
G00 X274.359 Y152.434
G00 X278.615 Y154.755
;Nearing path end, moving to preshutoff position
G00 X278.713 Y154.952
M107 ;Pump off
G00 X281.514 Y160.554
G00 X281.514 Y160.94
G00 X281.517 Y161.075
G00 X281.528 Y161.208
G00 X281.544 Y161.342
G4 P250 ;Pause for 250 milliseconds
;Completed path #57/72 on color #1
;Starting path #58/72, segments: 49, length: 153, color #1
G00 X316.758 Y102.533
M106 ;Pump on
G4 P450 ;Pause for 450 milliseconds
G00 X314.231 Y108.595
G00 X309.643 Y118.919
G00 X308.853 Y117.498
G00 X308.785 Y117.382
G00 X308.711 Y117.27
G00 X308.655 Y117.193
G00 X307.344 Y115.444
G00 X306.459 Y113.232
G00 X306.406 Y113.108
G00 X306.347 Y112.988
G00 X306.282 Y112.87
G00 X306.21 Y112.756
G00 X306.134 Y112.646
G00 X306.052 Y112.54
G00 X305.964 Y112.438
G00 X305.869 Y112.337
G00 X305.298 Y111.766
G00 X304.989 Y110.84
G00 X304.944 Y110.714
G00 X304.892 Y110.59
G00 X304.834 Y110.469
G00 X304.769 Y110.351
G00 X304.699 Y110.236
G00 X304.593 Y110.084
G00 X303.281 Y108.335
G00 X302.397 Y106.123
G00 X302.343 Y105.999
G00 X302.284 Y105.879
G00 X302.219 Y105.761
G00 X302.148 Y105.647
G00 X302.072 Y105.537
G00 X301.989 Y105.43
G00 X301.902 Y105.328
G00 X301.806 Y105.228
G00 X301.236 Y104.657
G00 X300.927 Y103.731
G00 X300.881 Y103.604
G00 X300.829 Y103.48
G00 X300.771 Y103.359
G00 X300.707 Y103.241
G00 X300.616 Y103.095
G00 X300.332 Y102.669
G00 X302.461 Y102.669
G00 X302.595 Y102.666
G00 X302.755 Y102.653
G00 X307.179 Y102.161
;Nearing path end, moving to preshutoff position
G00 X309.864 Y102.161
M107 ;Pump off
G00 X316.917 Y102.161
G4 P250 ;Pause for 250 milliseconds
;Completed path #58/72 on color #1
;Starting path #59/72, segments: 76, length: 370, color #1
G00 X315.22 Y89.365
M106 ;Pump on
G4 P450 ;Pause for 450 milliseconds
G00 X319.091 Y80.168
G00 X319.091 Y79.691
G00 X319.093 Y79.601
G00 X319.101 Y79.467
G00 X319.115 Y79.334
G00 X319.137 Y79.201
G00 X319.165 Y79.07
G00 X319.199 Y78.94
G00 X319.24 Y78.812
G00 X319.288 Y78.686
G00 X319.342 Y78.563
G00 X319.402 Y78.443
G00 X319.468 Y78.326
G00 X319.539 Y78.212
G00 X320.107 Y77.36
G00 X320.107 Y77.152
G00 X320.112 Y76.991
G00 X320.123 Y76.857
G00 X320.142 Y76.724
G00 X320.167 Y76.592
G00 X320.198 Y76.461
G00 X320.236 Y76.333
G00 X320.281 Y76.206
G00 X320.331 Y76.081
G00 X320.388 Y75.96
G00 X321.507 Y73.724
G00 X320.297 Y73.724
G00 X309.738 Y74.226
G00 X303.173 Y74.732
G00 X303.103 Y74.736
G00 X302.968 Y74.739
G00 X292.934 Y74.739
G00 X292.481 Y74.966
G00 X292.312 Y75.043
G00 X292.187 Y75.091
G00 X292.059 Y75.133
G00 X291.929 Y75.169
G00 X291.887 Y75.178
G00 X293.636 Y78.427
G00 X293.683 Y78.519
G00 X293.739 Y78.641
G00 X295.198 Y82.045
G00 X298.669 Y87.996
G00 X298.751 Y88.147
G00 X301.798 Y94.241
G00 X301.836 Y94.319
G00 X301.889 Y94.443
G00 X302.21 Y95.246
G00 X303.141 Y94.935
G00 X303.319 Y94.883
G00 X303.45 Y94.852
G00 X303.582 Y94.829
G00 X303.716 Y94.812
G00 X303.85 Y94.802
G00 X303.984 Y94.799
G00 X313 Y94.799
G00 X313.23 Y94.34
G00 X315.22 Y89.365
G00 X310.306 Y87.296
G00 X313.64 Y79.378
G00 X310.076 Y79.548
G00 X303.582 Y80.047
G00 X303.437 Y80.057
G00 X303.237 Y80.066
G00 X303.103 Y80.069
G00 X302.968 Y80.071
G00 X300.218 Y80.071
G00 X303.274 Y85.31
G00 X303.355 Y85.453
G00 X303.437 Y85.604
G00 X303.519 Y85.763
;Nearing path end, moving to preshutoff position
G00 X305.038 Y88.801
M107 ;Pump off
G00 X305.372 Y89.467
G00 X309.437 Y89.467
G00 X310.27 Y87.385
G4 P250 ;Pause for 250 milliseconds
;Completed path #59/72 on color #1
;Starting path #60/72, segments: 173, length: 645, color #1
G00 X312.723 Y66.392
M106 ;Pump on
G4 P450 ;Pause for 450 milliseconds
G00 X312.856 Y66.375
G00 X312.99 Y66.365
G00 X313.124 Y66.361
G00 X317.825 Y66.361
G00 X320.333 Y60.843
G00 X323.369 Y53.758
G00 X323.435 Y53.616
G00 X325.185 Y50.116
G00 X325.185 Y49.73
G00 X325.191 Y49.555
G00 X325.203 Y49.422
G00 X325.222 Y49.289
G00 X325.247 Y49.157
G00 X325.279 Y49.026
G00 X325.318 Y48.898
G00 X325.363 Y48.771
G00 X325.415 Y48.647
G00 X325.472 Y48.526
G00 X325.536 Y48.407
G00 X327.216 Y45.467
G00 X327.216 Y45.16
G00 X327.218 Y45.063
G00 X327.226 Y44.929
G00 X327.241 Y44.795
G00 X327.263 Y44.663
G00 X327.291 Y44.531
G00 X327.326 Y44.401
G00 X327.368 Y44.274
G00 X327.416 Y44.148
G00 X327.47 Y44.025
G00 X327.53 Y43.905
G00 X327.596 Y43.788
G00 X327.916 Y43.255
G00 X322.341 Y43.255
G00 X313.932 Y43.75
G00 X311.023 Y44.235
G00 X310.853 Y44.257
G00 X310.72 Y44.267
G00 X310.585 Y44.271
G00 X301.37 Y44.271
G00 X300.257 Y44.642
G00 X300.084 Y44.693
G00 X299.953 Y44.723
G00 X299.821 Y44.747
G00 X299.688 Y44.764
G00 X299.554 Y44.775
G00 X289.906 Y45.283
G00 X289.765 Y45.286
G00 X282.399 Y45.286
G00 X284.533 Y49.554
G00 X284.579 Y49.653
G00 X284.632 Y49.776
G00 X284.677 Y49.903
G00 X285.048 Y51.016
G00 X286.312 Y52.701
G00 X286.357 Y52.763
G00 X286.432 Y52.874
G00 X286.501 Y52.99
G00 X286.564 Y53.108
G00 X292.583 Y65.146
G00 X293.507 Y66.533
G00 X293.61 Y66.7
G00 X293.673 Y66.819
G00 X293.952 Y67.377
G00 X294.232 Y67.377
G00 X300.733 Y66.877
G00 X300.803 Y66.872
G00 X300.937 Y66.869
G00 X311.168 Y66.869
G00 X312.281 Y66.498
G00 X312.46 Y66.446
G00 X312.591 Y66.415
G00 X312.723 Y66.392
G00 X311.796 Y61.142
G00 X312.052 Y61.103
G00 X312.185 Y61.086
G00 X312.452 Y61.059
G00 X312.586 Y61.049
G00 X312.856 Y61.035
G00 X312.99 Y61.032
G00 X313.124 Y61.03
G00 X314.392 Y61.03
G00 X315.454 Y58.693
G00 X318.469 Y51.658
G00 X318.531 Y51.518
G00 X318.597 Y51.376
G00 X318.667 Y51.232
G00 X319.913 Y48.739
G00 X314.529 Y49.055
G00 X311.9 Y49.493
G00 X311.729 Y49.519
G00 X311.559 Y49.542
G00 X311.446 Y49.555
G00 X311.257 Y49.573
G00 X311.124 Y49.584
G00 X310.854 Y49.597
G00 X310.72 Y49.6
G00 X310.585 Y49.602
G00 X302.235 Y49.602
G00 X301.943 Y49.7
G00 X301.77 Y49.754
G00 X301.598 Y49.805
G00 X301.479 Y49.839
G00 X301.295 Y49.885
G00 X301.164 Y49.916
G00 X300.906 Y49.969
G00 X300.774 Y49.993
G00 X300.492 Y50.036
G00 X300.359 Y50.053
G00 X300.105 Y50.079
G00 X299.971 Y50.09
G00 X299.834 Y50.099
G00 X291.242 Y50.551
G00 X291.269 Y50.602
G00 X291.332 Y50.724
G00 X296.883 Y61.826
G00 X300.324 Y61.561
G00 X300.469 Y61.552
G00 X300.668 Y61.543
G00 X300.803 Y61.539
G00 X300.937 Y61.538
G00 X310.303 Y61.538
G00 X310.596 Y61.44
G00 X310.777 Y61.383
G00 X310.955 Y61.331
G00 X311.065 Y61.3
G00 X311.249 Y61.253
G00 X311.38 Y61.223
G00 X311.477 Y61.201
G00 X311.664 Y61.165
G00 X311.796 Y61.142
G00 X310.853 Y55.895
G00 X311.273 Y54.914
G00 X311.122 Y54.922
G00 X310.989 Y54.927
G00 X310.854 Y54.93
G00 X310.652 Y54.933
G00 X303.053 Y54.933
G00 X302.94 Y54.966
G00 X302.781 Y55.009
G00 X302.597 Y55.055
G00 X302.375 Y55.108
G00 X302.246 Y55.136
G00 X301.988 Y55.189
G00 X301.859 Y55.215
G00 X301.726 Y55.239
G00 X301.585 Y55.262
G00 X301.304 Y55.306
G00 X301.164 Y55.325
G00 X301.03 Y55.342
G00 X300.903 Y55.357
G00 X300.648 Y55.383
G00 X300.522 Y55.395
G00 X300.388 Y55.405
G00 X300.176 Y55.419
G00 X299.654 Y55.447
G00 X300.049 Y56.237
G00 X300.121 Y56.232
G00 X300.234 Y56.225
G00 X300.434 Y56.217
G00 X300.534 Y56.213
G00 X300.668 Y56.21
G00 X300.87 Y56.207
;Nearing path end, moving to preshutoff position
G00 X303.627 Y56.207
M107 ;Pump off
G00 X309.485 Y56.206
G00 X309.609 Y56.171
G00 X309.763 Y56.13
G00 X309.947 Y56.083
G00 X310.169 Y56.031
G00 X310.321 Y55.997
G00 X310.461 Y55.968
G00 X310.648 Y55.931
G4 P250 ;Pause for 250 milliseconds
;Completed path #60/72 on color #1
;Starting path #61/72, segments: 32, length: 154, color #1
G00 X349.886 Y98.236
M106 ;Pump on
G4 P450 ;Pause for 450 milliseconds
G00 X356.462 Y110.882
G00 X356.527 Y110.999
G00 X356.597 Y111.113
G00 X356.674 Y111.224
G00 X356.756 Y111.33
G00 X356.843 Y111.432
G00 X356.942 Y111.537
G00 X357.608 Y112.203
G00 X358.73 Y114.728
G00 X344.574 Y115.111
G00 X342.066 Y115.111
G00 X345.469 Y108.305
G00 X345.526 Y108.183
G00 X345.577 Y108.059
G00 X345.621 Y107.932
G00 X345.671 Y107.759
G00 X346.098 Y106.051
;Nearing path end, moving to preshutoff position
G00 X346.916 Y104.531
M107 ;Pump off
G00 X349.494 Y99.744
G00 X349.555 Y99.624
G00 X349.609 Y99.501
G00 X349.658 Y99.376
G00 X349.7 Y99.248
G00 X349.735 Y99.119
G00 X349.764 Y98.987
G00 X349.786 Y98.855
G00 X349.802 Y98.722
G00 X349.811 Y98.587
G00 X349.813 Y98.48
G00 X349.813 Y98.272
G00 X349.863 Y98.196
G4 P250 ;Pause for 250 milliseconds
;Completed path #61/72 on color #1
;Starting path #62/72, segments: 66, length: 362, color #1
G00 X359.761 Y128.194
M106 ;Pump on
G4 P450 ;Pause for 450 milliseconds
G00 X351.401 Y122.473
G00 X345.748 Y122.473
G00 X344.584 Y124.801
G00 X344.147 Y126.548
G00 X344.119 Y126.652
G00 X344.078 Y126.78
G00 X344.031 Y126.906
G00 X343.977 Y127.029
G00 X340.531 Y134.413
G00 X340.085 Y136.197
G00 X340.057 Y136.301
G00 X340.016 Y136.429
G00 X339.968 Y136.554
G00 X339.914 Y136.678
G00 X339.854 Y136.798
G00 X339.788 Y136.915
G00 X339.717 Y137.029
G00 X339.149 Y137.881
G00 X339.149 Y138.089
G00 X339.142 Y138.286
G00 X339.128 Y138.419
G00 X339.108 Y138.552
G00 X339.082 Y138.684
G00 X339.048 Y138.814
G00 X339.009 Y138.942
G00 X338.962 Y139.068
G00 X338.91 Y139.192
G00 X336.93 Y143.548
G00 X337.678 Y143.548
G00 X339.391 Y143.12
G00 X339.504 Y143.094
G00 X339.636 Y143.071
G00 X339.77 Y143.054
G00 X339.904 Y143.044
G00 X340.038 Y143.04
G00 X359.071 Y143.04
G00 X361.351 Y142.584
G00 X361.472 Y142.563
G00 X361.605 Y142.546
G00 X361.739 Y142.536
G00 X361.873 Y142.533
G00 X366.447 Y142.533
G00 X365.583 Y140.804
G00 X365.547 Y140.73
G00 X359.761 Y128.194
G00 X355.537 Y131.763
G00 X349.752 Y127.805
G00 X349.328 Y127.805
G00 X349.319 Y127.842
G00 X349.29 Y127.955
G00 X349.261 Y128.059
G00 X349.196 Y128.277
G00 X349.155 Y128.405
G00 X349.066 Y128.662
G00 X349.019 Y128.788
G00 X348.916 Y129.04
G00 X348.862 Y129.163
G00 X348.808 Y129.284
G00 X345.578 Y136.204
G00 X345.257 Y137.489
G00 X345.228 Y137.599
G00 X345.2 Y137.704
G00 X345.198 Y137.709
;Nearing path end, moving to preshutoff position
G00 X351.229 Y137.709
M107 ;Pump off
G00 X358.282 Y137.709
G4 P250 ;Pause for 250 milliseconds
;Completed path #62/72 on color #1
;Starting path #63/72, segments: 81, length: 637, color #1
G00 X368.738 Y158.805
M106 ;Pump on
G4 P450 ;Pause for 450 milliseconds
G00 X362.105 Y150.403
G00 X349.29 Y150.403
G00 X343.306 Y150.902
G00 X343.219 Y150.907
G00 X343.085 Y150.911
G00 X340.415 Y150.911
G00 X340.362 Y151.016
G00 X340.296 Y151.134
G00 X340.225 Y151.247
G00 X339.465 Y152.387
G00 X339.069 Y153.97
G00 X339.02 Y154.142
G00 X338.975 Y154.269
G00 X338.924 Y154.394
G00 X338.868 Y154.515
G00 X336.836 Y158.578
G00 X336.742 Y158.751
G00 X336.67 Y158.864
G00 X336.102 Y159.717
G00 X336.102 Y159.925
G00 X336.097 Y160.086
G00 X336.086 Y160.22
G00 X336.068 Y160.353
G00 X336.043 Y160.485
G00 X336.011 Y160.615
G00 X335.973 Y160.744
G00 X335.928 Y160.871
G00 X335.878 Y160.995
G00 X335.821 Y161.117
G00 X333.807 Y165.145
G00 X329.871 Y173.509
G00 X343.009 Y173.509
G00 X351.561 Y173.006
G00 X351.652 Y173.002
G00 X372.472 Y172.494
G00 X375.334 Y172.494
G00 X374.215 Y170.257
G00 X368.738 Y158.805
G00 X364.185 Y161.64
G00 X359.522 Y155.734
G00 X349.514 Y155.734
G00 X343.944 Y156.198
G00 X343.91 Y156.286
G00 X343.859 Y156.411
G00 X343.753 Y156.653
G00 X343.696 Y156.775
G00 X343.636 Y156.9
G00 X341.605 Y160.962
G00 X341.512 Y161.139
G00 X341.417 Y161.312
G00 X341.354 Y161.423
G00 X341.258 Y161.584
G00 X341.226 Y161.734
G00 X341.194 Y161.864
G00 X341.125 Y162.123
G00 X341.087 Y162.251
G00 X341.002 Y162.514
G00 X340.957 Y162.641
G00 X340.863 Y162.888
G00 X340.813 Y163.012
G00 X340.706 Y163.255
G00 X340.649 Y163.376
G00 X340.589 Y163.501
G00 X338.606 Y167.467
G00 X338.272 Y168.178
G00 X342.851 Y168.178
G00 X351.248 Y167.684
G00 X351.416 Y167.676
G00 X351.522 Y167.672
G00 X366.891 Y167.297
G00 X364.185 Y161.64
G00 X357.823 Y162.186
G00 X356.938 Y161.066
G00 X349.737 Y161.066
;Nearing path end, moving to preshutoff position
G00 X348.339 Y161.182
M107 ;Pump off
G00 X347.416 Y161.259
G00 X346.742 Y162.608
G00 X350.935 Y162.362
G00 X351.158 Y162.35
G00 X351.353 Y162.344
G4 P250 ;Pause for 250 milliseconds
;Completed path #63/72 on color #1
;Starting path #64/72, segments: 32, length: 152, color #1
G00 X398.006 Y115.736
M106 ;Pump on
G4 P450 ;Pause for 450 milliseconds
G00 X396.535 Y119.265
G00 X396.47 Y119.178
G00 X396.384 Y119.075
G00 X396.258 Y118.938
G00 X395.687 Y118.368
G00 X395.378 Y117.441
G00 X395.333 Y117.315
G00 X395.28 Y117.191
G00 X395.223 Y117.07
G00 X395.158 Y116.952
G00 X395.088 Y116.837
G00 X394.982 Y116.685
G00 X393.67 Y114.936
G00 X392.785 Y112.724
G00 X392.732 Y112.601
G00 X392.673 Y112.48
G00 X392.608 Y112.363
G00 X392.528 Y112.235
G00 X389.635 Y107.895
G00 X388.723 Y105.615
G00 X388.67 Y105.491
G00 X388.611 Y105.371
G00 X388.546 Y105.253
G00 X388.466 Y105.126
G00 X387.166 Y103.177
G00 X389.295 Y103.177
G00 X389.429 Y103.173
G00 X389.589 Y103.16
G00 X394.013 Y102.669
;Nearing path end, moving to preshutoff position
G00 X396.76 Y102.669
M107 ;Pump off
G00 X403.813 Y102.669
G4 P250 ;Pause for 250 milliseconds
;Completed path #64/72 on color #1
;Starting path #65/72, segments: 73, length: 367, color #1
G00 X403.61 Y85.732
M106 ;Pump on
G4 P450 ;Pause for 450 milliseconds
G00 X406.941 Y78.118
G00 X406.941 Y77.66
G00 X406.946 Y77.498
G00 X406.958 Y77.365
G00 X406.976 Y77.232
G00 X407.001 Y77.1
G00 X407.032 Y76.969
G00 X407.07 Y76.84
G00 X407.115 Y76.713
G00 X407.166 Y76.589
G00 X407.223 Y76.468
G00 X408.341 Y74.232
G00 X407.131 Y74.232
G00 X396.573 Y74.734
G00 X390.007 Y75.239
G00 X389.937 Y75.244
G00 X389.803 Y75.247
G00 X379.768 Y75.247
G00 X379.315 Y75.474
G00 X379.146 Y75.551
G00 X379.021 Y75.599
G00 X378.973 Y75.615
G00 X379.368 Y76.247
G00 X379.429 Y76.349
G00 X379.492 Y76.468
G00 X388.587 Y94.657
G00 X389.124 Y95.552
G00 X390.38 Y95.343
G00 X390.55 Y95.32
G00 X390.684 Y95.31
G00 X390.818 Y95.306
G00 X400.055 Y95.306
G00 X400.126 Y95.2
G00 X402.054 Y90.381
G00 X403.387 Y87.269
G00 X403.387 Y86.8
G00 X403.391 Y86.641
G00 X403.403 Y86.508
G00 X403.421 Y86.374
G00 X403.446 Y86.242
G00 X403.477 Y86.112
G00 X403.515 Y85.983
G00 X403.559 Y85.856
G00 X403.61 Y85.732
G00 X398.726 Y83.595
G00 X400.346 Y79.892
G00 X396.91 Y80.055
G00 X390.416 Y80.555
G00 X390.271 Y80.565
G00 X390.071 Y80.573
G00 X389.937 Y80.577
G00 X389.803 Y80.579
G00 X387.508 Y80.579
G00 X392.206 Y89.975
;Nearing path end, moving to preshutoff position
G00 X396.085 Y89.975
M107 ;Pump off
G00 X396.474 Y89.975
G00 X397.104 Y88.401
G00 X397.153 Y88.281
G00 X398.087 Y86.101
G00 X398.091 Y86.05
G00 X398.119 Y85.797
G00 X398.137 Y85.664
G00 X398.181 Y85.394
G00 X398.205 Y85.262
G00 X398.263 Y84.99
G00 X398.295 Y84.86
G00 X398.362 Y84.608
G00 X398.4 Y84.48
G00 X398.482 Y84.225
G00 X398.526 Y84.098
G00 X398.625 Y83.839
G00 X398.675 Y83.715
G4 P250 ;Pause for 250 milliseconds
;Completed path #65/72 on color #1
;Starting path #66/72, segments: 170, length: 648, color #1
G00 X399.557 Y66.899
M106 ;Pump on
G4 P450 ;Pause for 450 milliseconds
G00 X399.691 Y66.883
G00 X399.824 Y66.872
G00 X399.959 Y66.869
G00 X404.755 Y66.869
G00 X405.101 Y66.006
G00 X405.14 Y65.913
G00 X407.171 Y61.343
G00 X410.496 Y54.217
G00 X410.496 Y53.793
G00 X410.502 Y53.618
G00 X410.514 Y53.484
G00 X410.533 Y53.351
G00 X410.558 Y53.219
G00 X410.59 Y53.089
G00 X410.629 Y52.96
G00 X410.674 Y52.834
G00 X410.726 Y52.71
G00 X410.783 Y52.588
G00 X410.847 Y52.47
G00 X412.696 Y49.234
G00 X413.114 Y47.56
G00 X413.145 Y47.448
G00 X413.187 Y47.321
G00 X413.234 Y47.195
G00 X413.288 Y47.072
G00 X413.349 Y46.952
G00 X413.415 Y46.835
G00 X414.558 Y44.929
G00 X414.558 Y44.652
G00 X414.562 Y44.513
G00 X414.572 Y44.379
G00 X414.589 Y44.246
G00 X414.613 Y44.114
G00 X414.644 Y43.983
G00 X414.681 Y43.854
G00 X414.712 Y43.763
G00 X409.427 Y43.763
G00 X407.715 Y44.191
G00 X407.608 Y44.216
G00 X407.475 Y44.24
G00 X407.342 Y44.257
G00 X407.208 Y44.267
G00 X397.56 Y44.775
G00 X397.42 Y44.779
G00 X387.834 Y44.779
G00 X377.602 Y45.266
G00 X376.427 Y45.657
G00 X376.249 Y45.71
G00 X376.118 Y45.74
G00 X375.986 Y45.764
G00 X375.852 Y45.781
G00 X375.719 Y45.791
G00 X375.584 Y45.794
G00 X369.055 Y45.794
G00 X370.805 Y48.943
G00 X374.889 Y56.601
G00 X374.968 Y56.762
G00 X375.02 Y56.886
G00 X375.066 Y57.012
G00 X375.514 Y58.356
G00 X377.354 Y62.035
G00 X378.732 Y63.873
G00 X378.777 Y63.935
G00 X378.852 Y64.046
G00 X378.921 Y64.161
G00 X378.984 Y64.28
G00 X380.786 Y67.885
G00 X381.058 Y67.885
G00 X387.042 Y67.386
G00 X387.129 Y67.38
G00 X387.264 Y67.377
G00 X397.599 Y67.377
G00 X399.312 Y66.949
G00 X399.425 Y66.923
G00 X399.557 Y66.899
G00 X398.631 Y61.649
G00 X398.886 Y61.61
G00 X399.019 Y61.594
G00 X399.287 Y61.566
G00 X399.42 Y61.556
G00 X399.69 Y61.543
G00 X399.824 Y61.539
G00 X399.959 Y61.538
G00 X401.251 Y61.538
G00 X402.299 Y59.177
G00 X402.34 Y59.088
G00 X405.213 Y52.932
G00 X405.236 Y52.732
G00 X405.255 Y52.599
G00 X405.298 Y52.342
G00 X405.323 Y52.21
G00 X405.381 Y51.945
G00 X405.413 Y51.814
G00 X405.488 Y51.544
G00 X405.527 Y51.416
G00 X405.608 Y51.17
G00 X405.653 Y51.043
G00 X405.749 Y50.794
G00 X405.8 Y50.67
G00 X405.91 Y50.423
G00 X405.967 Y50.302
G00 X406.087 Y50.066
G00 X406.15 Y49.947
G00 X406.218 Y49.825
G00 X406.316 Y49.653
G00 X397.84 Y50.099
G00 X397.701 Y50.104
G00 X397.561 Y50.108
G00 X397.42 Y50.11
G00 X387.96 Y50.11
G00 X378.59 Y50.556
G00 X378.113 Y50.715
G00 X377.932 Y50.772
G00 X377.837 Y50.8
G00 X379.593 Y54.092
G00 X379.678 Y54.257
G00 X379.757 Y54.418
G00 X379.806 Y54.52
G00 X379.882 Y54.694
G00 X379.934 Y54.818
G00 X380.034 Y55.072
G00 X380.079 Y55.198
G00 X380.124 Y55.326
G00 X380.452 Y56.311
G00 X381.907 Y59.22
G00 X382.997 Y60.674
G00 X383.082 Y60.789
G00 X383.207 Y60.968
G00 X383.282 Y61.08
G00 X383.429 Y61.313
G00 X383.498 Y61.428
G00 X383.626 Y61.654
G00 X383.689 Y61.773
G00 X383.753 Y61.896
G00 X383.951 Y62.294
G00 X386.599 Y62.073
G00 X386.777 Y62.06
G00 X386.995 Y62.051
G00 X387.129 Y62.047
G00 X387.264 Y62.046
G00 X396.943 Y62.046
G00 X398.019 Y61.776
G00 X398.126 Y61.751
G00 X398.239 Y61.725
G00 X398.498 Y61.673
G00 X398.631 Y61.649
G00 X397.712 Y56.398
G00 X398.169 Y55.42
G00 X398.12 Y55.423
G00 X397.909 Y55.431
G00 X397.703 Y55.437
G00 X397.496 Y55.441
G00 X388.086 Y55.441
G00 X386.027 Y55.539
G00 X386.461 Y56.406
G00 X386.701 Y56.727
G00 X386.754 Y56.725
G00 X386.86 Y56.721
G00 X386.995 Y56.718
G00 X387.197 Y56.715
;Nearing path end, moving to preshutoff position
G00 X390.686 Y56.714
M107 ;Pump off
G00 X396.286 Y56.714
G00 X396.726 Y56.604
G00 X396.891 Y56.565
G00 X397.052 Y56.528
G00 X397.183 Y56.5
G00 X397.442 Y56.447
G00 X397.572 Y56.423
G00 X397.704 Y56.399
G4 P250 ;Pause for 250 milliseconds
;Completed path #66/72 on color #1
;Starting path #67/72, segments: 31, length: 150, color #1
G00 X439.226 Y107.322
M106 ;Pump on
G4 P450 ;Pause for 450 milliseconds
G00 X441.194 Y111.75
G00 X441.252 Y111.871
G00 X441.315 Y111.99
G00 X441.385 Y112.104
G00 X441.46 Y112.216
G00 X441.541 Y112.323
G00 X441.627 Y112.426
G00 X441.745 Y112.552
G00 X442.398 Y113.205
G00 X442.927 Y114.439
G00 X441.45 Y114.603
G00 X426.339 Y114.603
G00 X427.782 Y110.756
;Nearing path end, moving to preshutoff position
G00 X431.015 Y104.75
M107 ;Pump off
G00 X431.25 Y104.314
G00 X431.311 Y104.194
G00 X431.366 Y104.071
G00 X431.414 Y103.946
G00 X431.456 Y103.818
G00 X431.492 Y103.689
G00 X431.52 Y103.558
G00 X431.543 Y103.425
G00 X431.558 Y103.292
G00 X431.567 Y103.158
G00 X431.569 Y103.05
G00 X431.569 Y102.842
G00 X432.137 Y101.99
G00 X432.209 Y101.876
G00 X432.303 Y101.703
G00 X433.948 Y98.414
G4 P250 ;Pause for 250 milliseconds
;Completed path #67/72 on color #1
;Starting path #68/72, segments: 104, length: 366, color #1
G00 X443.075 Y126.74
M106 ;Pump on
G4 P450 ;Pause for 450 milliseconds
G00 X435.262 Y121.966
G00 X430.153 Y121.966
G00 X429.322 Y123.905
G00 X429.257 Y124.047
G00 X427.356 Y127.847
G00 X426.919 Y129.595
G00 X426.891 Y129.699
G00 X426.85 Y129.827
G00 X426.802 Y129.953
G00 X426.749 Y130.076
G00 X426.689 Y130.196
G00 X426.623 Y130.313
G00 X426.551 Y130.427
G00 X425.983 Y131.279
G00 X425.983 Y131.487
G00 X425.982 Y131.577
G00 X425.974 Y131.711
G00 X425.959 Y131.845
G00 X425.938 Y131.977
G00 X425.91 Y132.109
G00 X425.875 Y132.238
G00 X425.834 Y132.366
G00 X425.787 Y132.492
G00 X425.733 Y132.615
G00 X425.673 Y132.735
G00 X425.607 Y132.852
G00 X425.536 Y132.966
G00 X424.968 Y133.818
G00 X424.968 Y134.026
G00 X424.963 Y134.188
G00 X424.951 Y134.321
G00 X424.933 Y134.454
G00 X424.908 Y134.586
G00 X424.877 Y134.717
G00 X424.839 Y134.846
G00 X424.794 Y134.973
G00 X424.743 Y135.097
G00 X424.686 Y135.218
G00 X423.202 Y138.186
G00 X420.969 Y143.548
G00 X422.18 Y143.548
G00 X427.646 Y143.051
G00 X427.753 Y143.044
G00 X427.888 Y143.04
G00 X447.767 Y143.04
G00 X448.88 Y142.669
G00 X449.059 Y142.617
G00 X449.189 Y142.586
G00 X449.322 Y142.563
G00 X449.455 Y142.546
G00 X449.589 Y142.536
G00 X449.723 Y142.533
G00 X450.643 Y142.533
G00 X449.44 Y140.427
G00 X449.396 Y140.347
G00 X449.337 Y140.227
G00 X443.075 Y126.74
G00 X438.918 Y130.448
G00 X433.763 Y127.297
G00 X433.592 Y127.297
G00 X432.386 Y129.709
G00 X432.091 Y130.889
G00 X432.063 Y130.998
G00 X432.034 Y131.102
G00 X431.968 Y131.325
G00 X431.927 Y131.453
G00 X431.833 Y131.721
G00 X431.786 Y131.847
G00 X431.693 Y132.075
G00 X431.639 Y132.199
G00 X431.52 Y132.455
G00 X431.46 Y132.575
G00 X431.333 Y132.814
G00 X431.267 Y132.931
G00 X431.14 Y133.144
G00 X431.123 Y133.224
G00 X431.062 Y133.481
G00 X431.027 Y133.61
G00 X430.953 Y133.864
G00 X430.912 Y133.992
G00 X430.818 Y134.26
G00 X430.77 Y134.386
G00 X430.677 Y134.615
G00 X430.624 Y134.738
G00 X430.504 Y134.994
G00 X430.444 Y135.114
G00 X430.317 Y135.353
G00 X430.251 Y135.47
G00 X430.123 Y135.685
G00 X430.091 Y135.835
G00 X430.06 Y135.966
G00 X429.99 Y136.224
G00 X429.953 Y136.353
G00 X429.868 Y136.616
G00 X429.823 Y136.743
G00 X429.729 Y136.99
G00 X429.678 Y137.114
G00 X429.572 Y137.357
G00 X429.515 Y137.478
G00 X429.455 Y137.603
G00 X429.401 Y137.709
;Nearing path end, moving to preshutoff position
G00 X435.237 Y137.709
M107 ;Pump off
G00 X442.289 Y137.709
G4 P250 ;Pause for 250 milliseconds
;Completed path #68/72 on color #1
;Starting path #69/72, segments: 130, length: 636, color #1
G00 X451.688 Y156.612
M106 ;Pump on
G4 P450 ;Pause for 450 milliseconds
G00 X443.261 Y150.403
G00 X432.679 Y150.403
G00 X429.849 Y150.875
G00 X429.679 Y150.897
G00 X429.546 Y150.907
G00 X429.411 Y150.911
G00 X424.567 Y150.911
G00 X423.736 Y152.85
G00 X423.671 Y152.992
G00 X421.639 Y157.054
G00 X421.545 Y157.227
G00 X421.473 Y157.341
G00 X420.905 Y158.193
G00 X420.905 Y158.401
G00 X420.9 Y158.562
G00 X420.889 Y158.696
G00 X420.871 Y158.829
G00 X420.846 Y158.961
G00 X420.814 Y159.092
G00 X420.776 Y159.221
G00 X420.732 Y159.348
G00 X420.681 Y159.472
G00 X420.624 Y159.593
G00 X418.593 Y163.656
G00 X418.56 Y163.718
G00 X418.494 Y163.835
G00 X417.096 Y166.165
G00 X415.658 Y170.001
G00 X415.597 Y170.148
G00 X415.54 Y170.27
G00 X415.476 Y170.388
G00 X413.796 Y173.328
G00 X413.796 Y173.509
G00 X431.687 Y173.509
G00 X433.967 Y173.053
G00 X434.088 Y173.032
G00 X434.221 Y173.015
G00 X434.355 Y173.005
G00 X434.489 Y173.001
G00 X451.098 Y173.001
G00 X455.522 Y172.51
G00 X455.683 Y172.497
G00 X455.817 Y172.493
G00 X459.375 Y172.493
G00 X458.511 Y170.765
G00 X458.468 Y170.676
G00 X455.951 Y165.139
G00 X451.688 Y156.612
G00 X447.493 Y160.144
G00 X441.509 Y155.734
G00 X433.121 Y155.734
G00 X430.726 Y156.133
G00 X430.554 Y156.159
G00 X430.385 Y156.182
G00 X430.272 Y156.195
G00 X430.083 Y156.213
G00 X429.95 Y156.223
G00 X429.68 Y156.237
G00 X429.546 Y156.24
G00 X429.411 Y156.242
G00 X428.006 Y156.242
G00 X426.408 Y159.439
G00 X426.315 Y159.616
G00 X426.22 Y159.789
G00 X426.158 Y159.9
G00 X426.061 Y160.06
G00 X426.029 Y160.21
G00 X425.997 Y160.341
G00 X425.928 Y160.599
G00 X425.89 Y160.728
G00 X425.805 Y160.991
G00 X425.76 Y161.118
G00 X425.666 Y161.365
G00 X425.616 Y161.489
G00 X425.509 Y161.732
G00 X425.452 Y161.853
G00 X425.392 Y161.978
G00 X423.361 Y166.04
G00 X423.292 Y166.174
G00 X423.201 Y166.342
G00 X423.135 Y166.459
G00 X423.066 Y166.578
G00 X422.106 Y168.178
G00 X431.159 Y168.178
G00 X432.921 Y167.825
G00 X433.043 Y167.802
G00 X433.164 Y167.781
G00 X433.416 Y167.743
G00 X433.55 Y167.726
G00 X433.817 Y167.699
G00 X433.951 Y167.688
G00 X434.22 Y167.675
G00 X434.355 Y167.672
G00 X434.489 Y167.67
G00 X450.802 Y167.67
G00 X451.224 Y167.623
G00 X451.139 Y167.435
G00 X447.493 Y160.144
G00 X441.485 Y162.339
G00 X439.757 Y161.066
G00 X433.562 Y161.066
;Nearing path end, moving to preshutoff position
G00 X433.263 Y161.115
M107 ;Pump off
G00 X431.602 Y161.392
G00 X431.374 Y161.427
G00 X431.176 Y161.823
G00 X431.132 Y161.909
G00 X431.057 Y162.052
G00 X431.042 Y162.106
G00 X431.004 Y162.235
G00 X430.963 Y162.367
G00 X430.878 Y162.63
G00 X430.834 Y162.761
G00 X430.817 Y162.809
G00 X431.876 Y162.598
G00 X432.05 Y162.564
G00 X432.24 Y162.53
G00 X432.365 Y162.51
G00 X432.618 Y162.472
G00 X432.745 Y162.454
G00 X432.879 Y162.437
G00 X433.013 Y162.421
G00 X433.28 Y162.394
G00 X433.413 Y162.383
G00 X433.547 Y162.372
G00 X433.684 Y162.364
G00 X433.953 Y162.35
G00 X434.086 Y162.345
G00 X434.22 Y162.342
G00 X434.422 Y162.339
G4 P250 ;Pause for 250 milliseconds
;Completed path #69/72 on color #1
;Starting path #70/72, segments: 98, length: 640, color #1
G00 X104.34 Y150.496
M106 ;Pump on
G4 P450 ;Pause for 450 milliseconds
G00 X96.913 Y144.817
G00 X85.819 Y144.817
G00 X82.451 Y145.298
G00 X82.342 Y145.311
G00 X82.209 Y145.322
G00 X82.074 Y145.325
G00 X77.374 Y145.325
G00 X71.894 Y156.285
G00 X71.457 Y158.032
G00 X71.424 Y158.154
G00 X71.382 Y158.281
G00 X71.333 Y158.407
G00 X71.279 Y158.53
G00 X71.218 Y158.649
G00 X67.75 Y165.092
G00 X66.688 Y167.923
G00 X84.392 Y167.923
G00 X87.222 Y167.451
G00 X87.392 Y167.429
G00 X87.526 Y167.419
G00 X87.66 Y167.415
G00 X104.284 Y167.415
G00 X109.23 Y166.921
G00 X109.361 Y166.911
G00 X109.495 Y166.907
G00 X112.038 Y166.907
G00 X110.666 Y164.164
G00 X110.598 Y164.017
G00 X110.549 Y163.893
G00 X110.505 Y163.765
G00 X110.469 Y163.636
G00 X110.438 Y163.505
G00 X110.415 Y163.373
G00 X110.398 Y163.24
G00 X110.388 Y163.106
G00 X110.384 Y162.972
G00 X110.384 Y162.585
G00 X104.34 Y150.496
G00 X100.123 Y153.983
G00 X95.108 Y150.148
G00 X86.198 Y150.148
G00 X83.205 Y150.576
G00 X83.092 Y150.591
G00 X82.983 Y150.604
G00 X82.746 Y150.627
G00 X82.612 Y150.638
G00 X82.343 Y150.651
G00 X82.209 Y150.655
G00 X82.074 Y150.656
G00 X80.669 Y150.656
G00 X76.924 Y158.146
G00 X76.629 Y159.326
G00 X76.597 Y159.45
G00 X76.563 Y159.571
G00 X76.488 Y159.819
G00 X76.446 Y159.947
G00 X76.355 Y160.203
G00 X76.306 Y160.329
G00 X76.207 Y160.568
G00 X76.152 Y160.691
G00 X76.037 Y160.935
G00 X75.976 Y161.055
G00 X75.912 Y161.177
G00 X75.151 Y162.592
G00 X83.951 Y162.592
G00 X86.345 Y162.193
G00 X86.517 Y162.167
G00 X86.687 Y162.144
G00 X86.799 Y162.131
G00 X86.988 Y162.113
G00 X87.122 Y162.103
G00 X87.391 Y162.089
G00 X87.526 Y162.086
G00 X87.66 Y162.084
G00 X104.018 Y162.084
G00 X104.166 Y162.069
G00 X100.123 Y153.983
G00 X94.969 Y156.753
G00 X93.304 Y155.48
G00 X86.578 Y155.48
;Nearing path end, moving to preshutoff position
G00 X85.19 Y155.678
M107 ;Pump off
G00 X84.036 Y155.843
G00 X83.328 Y157.26
G00 X83.509 Y157.26
G00 X85.469 Y156.934
G00 X85.725 Y156.895
G00 X85.981 Y156.86
G00 X86.161 Y156.838
G00 X86.295 Y156.823
G00 X86.484 Y156.805
G00 X86.584 Y156.797
G00 X86.718 Y156.786
G00 X86.854 Y156.778
G00 X87.124 Y156.764
G00 X87.257 Y156.759
G00 X87.391 Y156.756
G00 X87.593 Y156.753
G4 P250 ;Pause for 250 milliseconds
;Completed path #70/72 on color #1
;Starting path #71/72, segments: 78, length: 366, color #1
G00 X90.569 Y122.935
M106 ;Pump on
G4 P450 ;Pause for 450 milliseconds
G00 X92.079 Y126.206
G00 X92.155 Y126.364
G00 X92.235 Y126.523
G00 X92.319 Y126.684
G00 X94.48 Y130.646
G00 X94.501 Y130.784
G00 X94.524 Y130.917
G00 X94.561 Y131.103
G00 X94.582 Y131.201
G00 X94.613 Y131.331
G00 X94.675 Y131.571
G00 X94.711 Y131.7
G00 X94.795 Y131.968
G00 X94.828 Y132.068
G00 X93.993 Y132.123
G00 X81.757 Y132.123
G00 X86.296 Y122.219
G00 X88.063 Y122.219
G00 X90.569 Y122.935
G00 X94.385 Y118.48
G00 X96.919 Y123.972
G00 X96.999 Y124.131
G00 X99.721 Y129.12
G00 X99.721 Y129.456
G00 X99.724 Y129.591
G00 X99.734 Y129.724
G00 X99.751 Y129.858
G00 X99.774 Y129.99
G00 X99.805 Y130.121
G00 X99.841 Y130.25
G00 X99.885 Y130.377
G00 X99.934 Y130.502
G00 X100.002 Y130.648
G00 X103.151 Y136.947
G00 X101.878 Y136.947
G00 X101.701 Y136.952
G00 X94.17 Y137.455
G00 X80.551 Y137.455
G00 X80.416 Y137.458
G00 X80.283 Y137.468
G00 X80.149 Y137.485
G00 X80.028 Y137.506
G00 X77.748 Y137.962
G00 X73.923 Y137.962
G00 X73.927 Y137.952
G00 X73.968 Y137.824
G00 X74.002 Y137.695
G00 X74.031 Y137.563
G00 X74.052 Y137.43
G00 X74.066 Y137.297
G00 X74.075 Y137.163
G00 X74.076 Y137.073
G00 X74.076 Y136.865
G00 X74.644 Y136.013
G00 X74.715 Y135.899
G00 X74.781 Y135.782
G00 X74.841 Y135.662
G00 X74.901 Y135.524
G00 X75.916 Y132.985
G00 X75.963 Y132.859
G00 X76.003 Y132.731
G00 X76.028 Y132.642
G00 X76.475 Y130.85
G00 X81.958 Y118.887
G00 X82.011 Y118.764
G00 X82.058 Y118.638
G00 X82.098 Y118.51
G00 X82.132 Y118.38
G00 X82.159 Y118.248
G00 X82.179 Y118.115
G00 X82.193 Y117.981
G00 X82.2 Y117.847
G00 X82.201 Y117.777
;Nearing path end, moving to preshutoff position
G00 X82.201 Y117.597
M107 ;Pump off
G00 X82.201 Y117.499
G00 X82.568 Y116.888
G00 X88.81 Y116.888
G4 P250 ;Pause for 250 milliseconds
;Completed path #71/72 on color #1
;Starting path #72/72, segments: 14, length: 151, color #1
G00 X94.47 Y107.392
M106 ;Pump on
G4 P450 ;Pause for 450 milliseconds
G00 X95.375 Y109.02
G00 X95.328 Y109.018
G00 X95.194 Y109.019
G00 X95.012 Y109.03
G00 X90.066 Y109.525
G00 X78.833 Y109.525
G00 X80.326 Y106.912
G00 X80.39 Y106.793
G00 X80.447 Y106.672
G00 X80.508 Y106.525
G00 X81.982 Y102.593
;Nearing path end, moving to preshutoff position
G00 X83.681 Y99.195
M107 ;Pump off
G00 X86.836 Y92.886
G4 P250 ;Pause for 250 milliseconds
;Completed path #72/72 on color #1
;PancakePainter Footer Start
G4 P1000 ;Pause for 1000 milliseconds
G00 X1 Y1 ;Help homing
G28 X0 Y0 ;Home All Axis
M84 ;Motors off
;PancakePainter Footer Complete
