;PancakePainter v1.2.0-beta GCODE header start
;Originally generated @ Fri Dec 23 2016 23:42:01 GMT+0100 (CET)
;Settings used to generate this file:
;----------------------------------------
;botSpeed: 4620
;flattenResolution: 15
;lineEndPreShutoff: 20
;startWait: 450
;endWait: 250
;shadeChangeWait: 35
;useLineFill: false
;shapeFillWidth: 4
;fillSpacing: 15
;fillAngle: 23
;fillGroupThreshold: 27
;useColorSpeed: false
;botColorSpeed: 4620,4620,4620,4620
;----------------------------------------
W1 X42 Y210 L485 T0 ;Define Workspace of this file
G21 ;Set units to MM
G1 F4620 ;Set Speed
M107 ;Pump off
G4 P1000 ;Pause for 1000 milliseconds
M84 ;Motors off
G00 X1 Y1 ;Help homing
G28 X0 Y0 ;Home All Axis
;PancakePainter header complete
;Starting path #1/8, segments: 4, length: 263, color #4
G00 X86.601 Y84.785
M106 ;Pump on
G4 P450 ;Pause for 450 milliseconds
G00 X73.193 Y113.587
G00 X101.994 Y113.091
;Nearing path end, moving to preshutoff position
G00 X89.97 Y90.981
M107 ;Pump off
G00 X86.601 Y84.785
G4 P250 ;Pause for 250 milliseconds
;Completed path #1/8 on color #4
;Starting path #2/8, segments: 4, length: 292, color #4
G00 X80.145 Y113.587
M106 ;Pump on
G4 P450 ;Pause for 450 milliseconds
G00 X68.227 Y141.892
G00 X109.443 Y140.899
;Nearing path end, moving to preshutoff position
G00 X99.098 Y119.444
M107 ;Pump off
G00 X96.035 Y113.091
G4 P250 ;Pause for 250 milliseconds
;Completed path #2/8 on color #4
;Starting path #3/8, segments: 4, length: 349, color #4
G00 X103.981 Y141.396
M106 ;Pump on
G4 P450 ;Pause for 450 milliseconds
G00 X118.381 Y170.694
G00 X60.779 Y172.184
;Nearing path end, moving to preshutoff position
G00 X71.7 Y148.78
M107 ;Pump off
G00 X74.683 Y142.389
G4 P250 ;Pause for 250 milliseconds
;Completed path #3/8 on color #4
;Starting path #4/8, segments: 4, length: 138, color #4
G00 X85.111 Y173.177
M106 ;Pump on
G4 P450 ;Pause for 450 milliseconds
G00 X84.614 Y192.047
G00 X94.546 Y192.047
;Nearing path end, moving to preshutoff position
G00 X94.546 Y179.237
M107 ;Pump off
G00 X94.546 Y172.184
G4 P250 ;Pause for 250 milliseconds
;Completed path #4/8 on color #4
;Switching Color to: Medium dark
G4 P1000 ;Pause for 1000 milliseconds
G00 X1 Y1 ;Help homing
G28 X0 Y0 ;Home All Axis
M84 ;Motors off
M142 ;Bottle change
G4 P35000 ;Pause for 35000 milliseconds
;Starting path #5/8, segments: 5, length: 56, color #3
G00 X90.573 Y186.918
M106 ;Pump on
G4 P450 ;Pause for 450 milliseconds
G00 X90.573 Y188.405
G00 X88.287 Y188.405
;Nearing path end, moving to preshutoff position
G00 X88.287 Y186.859
M107 ;Pump off
G00 X88.287 Y179.806
G4 P250 ;Pause for 250 milliseconds
;Completed path #5/8 on color #3
;Switching Color to: Light
G4 P1000 ;Pause for 1000 milliseconds
G00 X1 Y1 ;Help homing
G28 X0 Y0 ;Home All Axis
M84 ;Motors off
M142 ;Bottle change
G4 P35000 ;Pause for 35000 milliseconds
;Starting path #6/8, segments: 25, length: 153, color #1
G00 X94.434 Y107.508
M106 ;Pump on
G4 P450 ;Pause for 450 milliseconds
G00 X94.5 Y107.625
G00 X94.571 Y107.739
G00 X94.661 Y107.865
G00 X95.651 Y109.186
G00 X90.7 Y109.186
G00 X90.565 Y109.19
G00 X90.405 Y109.203
G00 X85.981 Y109.694
G00 X78.898 Y109.694
G00 X79.811 Y108.097
G00 X79.875 Y107.978
G00 X79.933 Y107.857
G00 X79.984 Y107.733
G00 X80.026 Y107.617
G00 X80.928 Y104.909
G00 X81.746 Y103.682
G00 X81.817 Y103.569
G00 X81.884 Y103.452
G00 X81.943 Y103.331
G00 X81.988 Y103.229
;Nearing path end, moving to preshutoff position
G00 X83.658 Y99.222
M107 ;Pump off
G00 X84.491 Y97.222
G00 X86.408 Y93.389
G00 X86.741 Y92.89
G4 P250 ;Pause for 250 milliseconds
;Completed path #6/8 on color #1
;Starting path #7/8, segments: 116, length: 365, color #1
G00 X95.265 Y120.416
M106 ;Pump on
G4 P450 ;Pause for 450 milliseconds
G00 X88.547 Y117.057
G00 X82.699 Y117.057
G00 X82.42 Y117.614
G00 X82.325 Y117.787
G00 X82.254 Y117.901
G00 X81.686 Y118.753
G00 X81.686 Y118.961
G00 X81.681 Y119.123
G00 X81.67 Y119.256
G00 X81.651 Y119.389
G00 X81.626 Y119.521
G00 X81.595 Y119.652
G00 X81.557 Y119.781
G00 X81.512 Y119.908
G00 X81.461 Y120.032
G00 X81.404 Y120.153
G00 X78.996 Y124.97
G00 X78.559 Y126.717
G00 X78.531 Y126.822
G00 X78.49 Y126.95
G00 X78.442 Y127.075
G00 X78.389 Y127.198
G00 X78.329 Y127.319
G00 X78.263 Y127.436
G00 X78.191 Y127.55
G00 X77.623 Y128.402
G00 X77.623 Y128.61
G00 X77.622 Y128.7
G00 X77.614 Y128.834
G00 X77.599 Y128.967
G00 X77.578 Y129.1
G00 X77.55 Y129.231
G00 X77.515 Y129.361
G00 X77.474 Y129.489
G00 X77.427 Y129.614
G00 X77.373 Y129.738
G00 X77.313 Y129.858
G00 X77.247 Y129.975
G00 X77.176 Y130.089
G00 X76.608 Y130.941
G00 X76.608 Y131.149
G00 X76.606 Y131.246
G00 X76.598 Y131.38
G00 X76.583 Y131.513
G00 X76.561 Y131.646
G00 X76.533 Y131.778
G00 X76.498 Y131.907
G00 X76.456 Y132.035
G00 X76.408 Y132.16
G00 X76.354 Y132.283
G00 X76.294 Y132.404
G00 X76.228 Y132.52
G00 X74.83 Y134.85
G00 X73.6 Y138.132
G00 X74.629 Y138.132
G00 X76.342 Y137.703
G00 X76.455 Y137.678
G00 X76.587 Y137.654
G00 X76.721 Y137.637
G00 X76.855 Y137.627
G00 X76.989 Y137.624
G00 X95.557 Y137.624
G00 X98.386 Y137.152
G00 X98.556 Y137.13
G00 X98.69 Y137.119
G00 X98.824 Y137.116
G00 X103.144 Y137.116
G00 X102.534 Y135.896
G00 X102.459 Y135.732
G00 X102.41 Y135.607
G00 X102.368 Y135.479
G00 X102.332 Y135.35
G00 X101.903 Y133.633
G00 X97.484 Y125.287
G00 X97.413 Y125.143
G00 X95.265 Y120.416
G00 X91.193 Y124.34
G00 X87.288 Y122.388
G00 X86.245 Y122.388
G00 X86.233 Y122.413
G00 X86.173 Y122.537
G00 X84.026 Y126.831
G00 X83.731 Y128.011
G00 X83.703 Y128.12
G00 X83.674 Y128.225
G00 X83.608 Y128.447
G00 X83.567 Y128.575
G00 X83.474 Y128.844
G00 X83.426 Y128.969
G00 X83.333 Y129.198
G00 X83.279 Y129.321
G00 X83.16 Y129.577
G00 X83.1 Y129.698
G00 X82.973 Y129.936
G00 X82.907 Y130.053
G00 X82.781 Y130.266
G00 X82.763 Y130.346
G00 X82.702 Y130.603
G00 X82.667 Y130.733
G00 X82.593 Y130.986
G00 X82.552 Y131.114
G00 X82.458 Y131.383
G00 X82.41 Y131.508
G00 X82.317 Y131.737
G00 X82.264 Y131.86
G00 X82.144 Y132.116
G00 X82.084 Y132.237
G00 X82.054 Y132.292
;Nearing path end, moving to preshutoff position
G00 X93.684 Y132.292
M107 ;Pump off
G00 X95.115 Y132.292
G00 X95.157 Y132.285
G00 X92.772 Y127.781
G00 X92.698 Y127.635
G00 X92.627 Y127.491
G00 X92.56 Y127.348
G4 P250 ;Pause for 250 milliseconds
;Completed path #7/8 on color #1
;Starting path #8/8, segments: 94, length: 645, color #1
G00 X104.476 Y151.104
M106 ;Pump on
G4 P450 ;Pause for 450 milliseconds
G00 X101.243 Y144.514
G00 X97.632 Y144.966
G00 X97.435 Y144.983
G00 X97.301 Y144.986
G00 X85.733 Y144.986
G00 X79.749 Y145.485
G00 X79.662 Y145.491
G00 X79.528 Y145.494
G00 X77.365 Y145.494
G00 X77.342 Y145.544
G00 X75.819 Y148.591
G00 X75.786 Y148.653
G00 X75.72 Y148.77
G00 X74.322 Y151.1
G00 X72.884 Y154.936
G00 X72.823 Y155.083
G00 X72.766 Y155.204
G00 X72.702 Y155.323
G00 X70.853 Y158.559
G00 X70.435 Y160.233
G00 X70.385 Y160.405
G00 X70.34 Y160.532
G00 X70.29 Y160.657
G00 X70.233 Y160.778
G00 X68.202 Y164.841
G00 X68.107 Y165.014
G00 X68.035 Y165.127
G00 X67.217 Y166.354
G00 X66.638 Y168.092
G00 X70.821 Y168.092
G00 X79.888 Y167.589
G00 X80.036 Y167.585
G00 X94.132 Y167.585
G00 X99.599 Y167.088
G00 X99.706 Y167.08
G00 X99.84 Y167.077
G00 X112.284 Y167.077
G00 X110.659 Y163.825
G00 X104.476 Y151.104
G00 X99.689 Y153.453
G00 X98.129 Y150.273
G00 X98.099 Y150.277
G00 X97.902 Y150.294
G00 X97.759 Y150.304
G00 X97.57 Y150.313
G00 X97.435 Y150.316
G00 X97.301 Y150.318
G00 X85.957 Y150.318
G00 X80.697 Y150.756
G00 X80.587 Y150.975
G00 X80.518 Y151.109
G00 X80.427 Y151.277
G00 X80.361 Y151.394
G00 X80.292 Y151.513
G00 X79.142 Y153.429
G00 X77.875 Y156.808
G00 X77.816 Y156.959
G00 X77.756 Y157.106
G00 X77.717 Y157.197
G00 X77.639 Y157.37
G00 X77.582 Y157.491
G00 X77.462 Y157.727
G00 X77.399 Y157.846
G00 X77.331 Y157.968
G00 X75.847 Y160.566
G00 X75.607 Y161.526
G00 X75.56 Y161.7
G00 X75.511 Y161.873
G00 X75.474 Y161.995
G00 X75.414 Y162.176
G00 X75.369 Y162.303
G00 X75.293 Y162.504
G00 X79.592 Y162.265
G00 X79.742 Y162.259
G00 X79.89 Y162.255
G00 X80.036 Y162.253
G00 X93.891 Y162.253
G00 X99.116 Y161.778
G00 X99.228 Y161.769
G00 X99.335 Y161.762
G00 X99.571 Y161.75
G00 X99.706 Y161.747
G00 X99.84 Y161.745
G00 X103.72 Y161.745
G00 X99.689 Y153.453
G00 X94.894 Y155.783
G00 X94.828 Y155.649
G00 X86.18 Y155.649
G00 X83.933 Y155.836
G00 X83.526 Y156.922
;Nearing path end, moving to preshutoff position
G00 X88.326 Y156.922
M107 ;Pump off
G00 X93.651 Y156.922
G00 X95.372 Y156.765
G4 P250 ;Pause for 250 milliseconds
;Completed path #8/8 on color #1
;PancakePainter Footer Start
G4 P1000 ;Pause for 1000 milliseconds
G00 X1 Y1 ;Help homing
G28 X0 Y0 ;Home All Axis
M84 ;Motors off
;PancakePainter Footer Complete
